;FLAVOR:Marlin
;TIME:2188
;Filament used: 5.2817m
;Layer height: 0.6
;MINX:18.1
;MINY:84.6
;MINZ:0.2
;MAXX:201.899
;MAXY:135.399
;MAXZ:12.8
;Generated with Cura_SteamEngine 4.1.0
M140 S60
M105
M190 S60
M104 S200
M105
M109 S200
M82 ;absolute extrusion mode
; Ender 3 Custom Start G-code
G28 ; Home all axes
G92 E0 ; Reset Extruder
G1 Z2.0 F3000 ; Move Z Axis up little to prevent scratching of Heat Bed
G1 X0.1 Y20 Z0.3 F5000.0 ; Move to start position
G1 X0.1 Y200.0 Z0.3 F1500.0 E15 ; Draw the first line
G1 X0.4 Y200.0 Z0.3 F5000.0 ; Move to side a little
G1 X0.4 Y20 Z0.3 F1500.0 E30 ; Draw the second line
G92 E0 ; Reset Extruder
G1 Z2.0 F3000 ; Move Z Axis up little to prevent scratching of Heat Bed
; End of custom start GCode
G92 E0
G92 E0
G1 F2400 E-5
;LAYER_COUNT:22
;LAYER:0
M107
M204 S500
M205 X10 Y10
G0 F3600 X46.667 Y85.274 Z0.2
;TYPE:SKIRT
G1 F2400 E0
G1 F1800 X47.324 Y84.993 E0.02377
G1 X48.009 Y84.787 E0.04756
G1 X48.713 Y84.658 E0.07136
G1 X49.329 Y84.611 E0.09191
G1 X49.652 Y84.602 E0.10266
G1 X49.83 Y84.6 E0.10858
G1 X169.793 Y84.6 E4.09856
G1 X169.884 Y84.601 E4.10159
G1 X170.585 Y84.611 E4.12491
G1 X171.299 Y84.661 E4.14871
G1 X172.002 Y84.79 E4.17249
G1 X172.687 Y84.997 E4.19629
G1 X173.344 Y85.28 E4.22008
G1 X173.966 Y85.633 E4.24387
G1 X174.544 Y86.054 E4.26765
G1 X175.072 Y86.537 E4.29145
G1 X175.542 Y87.076 E4.31524
G1 X175.89 Y87.569 E4.33531
G1 X176.015 Y87.765 E4.34304
G1 X176.066 Y87.845 E4.3462
G1 X177.288 Y89.825 E4.42358
G1 X178.727 Y92.018 E4.51082
G1 X180.262 Y94.216 E4.59999
G1 X181.817 Y96.317 E4.68693
G1 X183.458 Y98.406 E4.77528
G1 X185.129 Y100.413 E4.86214
G1 X186.924 Y102.449 E4.95242
G1 X188.697 Y104.35 E5.03888
G1 X190.574 Y106.252 E5.12776
G1 X192.477 Y108.073 E5.21536
G1 X194.431 Y109.841 E5.30301
G1 X196.457 Y111.571 E5.39162
G1 X198.342 Y113.096 E5.47226
G1 X199.434 Y113.957 E5.51851
G1 X199.97 Y114.431 E5.54231
G1 X200.449 Y114.961 E5.56607
G1 X200.867 Y115.542 E5.58988
G1 X201.217 Y116.166 E5.61367
G1 X201.496 Y116.824 E5.63744
G1 X201.699 Y117.51 E5.66124
G1 X201.825 Y118.214 E5.68503
G1 X201.87 Y118.846 E5.7061
G1 X201.892 Y119.87 E5.74017
G1 X201.893 Y120.002 E5.74456
G1 X201.899 Y128.262 E6.01929
G1 X201.898 Y128.349 E6.02218
G1 X201.889 Y129.051 E6.04553
G1 X201.84 Y129.765 E6.06933
G1 X201.712 Y130.468 E6.0931
G1 X201.506 Y131.153 E6.11689
G1 X201.224 Y131.811 E6.1407
G1 X200.872 Y132.433 E6.16447
G1 X200.451 Y133.012 E6.18828
G1 X199.969 Y133.54 E6.21206
G1 X199.431 Y134.011 E6.23584
G1 X198.844 Y134.42 E6.25964
G1 X198.215 Y134.76 E6.28342
G1 X197.552 Y135.028 E6.3072
G1 X196.863 Y135.22 E6.33099
G1 X196.157 Y135.334 E6.35478
G1 X195.678 Y135.366 E6.37075
G1 X195.338 Y135.376 E6.38206
G1 X195.157 Y135.379 E6.38808
G1 X176.546 Y135.398 E7.00709
G1 X176.489 Y135.398 E7.00898
G1 X175.472 Y135.39 E7.04281
G1 X174.758 Y135.344 E7.06661
G1 X174.054 Y135.219 E7.09039
G1 X173.368 Y135.017 E7.11417
G1 X172.709 Y134.738 E7.13797
G1 X172.085 Y134.389 E7.16175
G1 X171.419 Y133.902 E7.18919
G1 X169.316 Y132.145 E7.28034
G1 X167.233 Y130.488 E7.36887
G1 X165.146 Y128.922 E7.45565
G1 X162.946 Y127.365 E7.54529
G1 X160.754 Y125.907 E7.63285
G1 X158.514 Y124.505 E7.72075
G1 X156.239 Y123.171 E7.80846
G1 X153.908 Y121.89 E7.89693
G1 X151.532 Y120.671 E7.98575
G1 X149.165 Y119.539 E8.07301
G1 X146.755 Y118.47 E8.1607
G1 X144.28 Y117.453 E8.2497
G1 X141.804 Y116.521 E8.33769
G1 X139.335 Y115.668 E8.42458
G1 X136.782 Y114.866 E8.51358
G1 X134.23 Y114.143 E8.6018
G1 X131.693 Y113.5 E8.68885
G1 X129.074 Y112.914 E8.77811
G1 X126.474 Y112.414 E8.86617
G1 X123.892 Y111.989 E8.95321
G1 X121.268 Y111.633 E9.04128
G1 X118.629 Y111.351 E9.12955
G1 X115.973 Y111.144 E9.21816
G1 X113.361 Y111.013 E9.30514
G1 X110.684 Y110.956 E9.3942
G1 X108.043 Y110.973 E9.48204
G1 X105.4 Y111.066 E9.57001
G1 X102.758 Y111.234 E9.65806
G1 X100.131 Y111.474 E9.74579
G1 X97.513 Y111.789 E9.8335
G1 X94.873 Y112.184 E9.92228
G1 X92.255 Y112.65 E10.01073
G1 X89.685 Y113.184 E10.09803
G1 X87.141 Y113.787 E10.18499
G1 X84.53 Y114.485 E10.27488
G1 X82.018 Y115.234 E10.36206
G1 X79.505 Y116.06 E10.45005
G1 X76.991 Y116.967 E10.53894
G1 X74.542 Y117.929 E10.62645
G1 X72.097 Y118.972 E10.71486
G1 X69.72 Y120.064 E10.80186
G1 X67.327 Y121.247 E10.89065
G1 X64.981 Y122.491 E10.97897
G1 X62.685 Y123.793 E11.06676
G1 X60.41 Y125.17 E11.15521
G1 X58.213 Y126.586 E11.24214
G1 X56.023 Y128.086 E11.33043
G1 X53.861 Y129.658 E11.41934
G1 X51.779 Y131.265 E11.50681
G1 X49.225 Y133.369 E11.61687
G1 X48.665 Y133.847 E11.64136
G1 X48.096 Y134.28 E11.66514
G1 X47.482 Y134.647 E11.68893
G1 X46.831 Y134.943 E11.71272
G1 X46.151 Y135.164 E11.7365
G1 X45.45 Y135.309 E11.76031
G1 X44.638 Y135.377 E11.78741
G1 X43.583 Y135.398 E11.82251
G1 X43.449 Y135.399 E11.82696
G1 X25.04 Y135.38 E12.43925
G1 X24.925 Y135.379 E12.44308
G1 X24.401 Y135.369 E12.46051
G1 X23.688 Y135.315 E12.48429
G1 X22.985 Y135.182 E12.50809
G1 X22.301 Y134.972 E12.53188
G1 X21.645 Y134.687 E12.55567
G1 X21.025 Y134.33 E12.57947
G1 X20.449 Y133.906 E12.60326
G1 X19.924 Y133.421 E12.62703
G1 X19.456 Y132.88 E12.65082
G1 X19.051 Y132.29 E12.67462
G1 X18.715 Y131.659 E12.6984
G1 X18.451 Y130.994 E12.7222
G1 X18.263 Y130.304 E12.74598
G1 X18.154 Y129.597 E12.76978
G1 X18.125 Y129.132 E12.78527
G1 X18.102 Y128.223 E12.81552
G1 X18.1 Y128.061 E12.8209
G1 X18.1 Y119.692 E13.09926
G1 X18.101 Y119.6 E13.10232
G1 X18.111 Y118.902 E13.12554
G1 X18.161 Y118.189 E13.14931
G1 X18.29 Y117.485 E13.17311
G1 X18.498 Y116.801 E13.19689
G1 X18.78 Y116.144 E13.22067
G1 X19.134 Y115.522 E13.24448
G1 X19.555 Y114.944 E13.26826
G1 X20.038 Y114.416 E13.29206
G1 X20.547 Y113.968 E13.31461
G1 X22.568 Y112.374 E13.40022
G1 X24.624 Y110.663 E13.48919
G1 X26.605 Y108.918 E13.57699
G1 X28.526 Y107.128 E13.66432
G1 X30.411 Y105.268 E13.7524
G1 X32.246 Y103.353 E13.84062
G1 X34.022 Y101.39 E13.92866
G1 X35.755 Y99.363 E14.01736
G1 X37.421 Y97.299 E14.10558
G1 X39.002 Y95.222 E14.1924
G1 X40.551 Y93.063 E14.28078
G1 X42.035 Y90.865 E14.36899
G1 X43.516 Y88.533 E14.46087
G1 X44.057 Y87.654 E14.4952
G1 X44.466 Y87.066 E14.51902
G1 X44.937 Y86.528 E14.54281
G1 X45.466 Y86.046 E14.56661
G1 X46.045 Y85.626 E14.5904
G1 X46.667 Y85.274 E14.61417
G0 F3600 X46.943 Y85.584
G1 F1800 X47.586 Y85.325 E14.63723
G1 X48.253 Y85.141 E14.66024
G1 X48.938 Y85.036 E14.68329
G1 X49.34 Y85.011 E14.69668
G1 X49.663 Y85.002 E14.70743
G1 X49.83 Y85 E14.71299
G1 X169.793 Y85 E18.70297
G1 X169.879 Y85.001 E18.70583
G1 X170.58 Y85.011 E18.72915
G1 X171.27 Y85.06 E18.75216
G1 X171.951 Y85.19 E18.77522
G1 X172.612 Y85.396 E18.79824
G1 X173.244 Y85.678 E18.82126
G1 X173.841 Y86.03 E18.84431
G1 X174.392 Y86.449 E18.86734
G1 X174.892 Y86.928 E18.89037
G1 X175.333 Y87.462 E18.9134
G1 X175.553 Y87.784 E18.92637
G1 X175.678 Y87.98 E18.9341
G1 X175.725 Y88.055 E18.93705
G1 X176.945 Y90.032 E19.01432
G1 X178.391 Y92.236 E19.10199
G1 X179.928 Y94.437 E19.19128
G1 X181.497 Y96.556 E19.27897
G1 X183.152 Y98.664 E19.36811
G1 X184.838 Y100.688 E19.45573
G1 X186.598 Y102.685 E19.54426
G1 X188.437 Y104.657 E19.63394
G1 X190.278 Y106.522 E19.72111
G1 X192.196 Y108.357 E19.80939
G1 X194.169 Y110.142 E19.89789
G1 X196.21 Y111.885 E19.98715
G1 X198.13 Y113.438 E20.06929
G1 X199.186 Y114.271 E20.11402
G1 X199.704 Y114.731 E20.13707
G1 X200.166 Y115.247 E20.1601
G1 X200.565 Y115.813 E20.18313
G1 X200.896 Y116.421 E20.20616
G1 X201.156 Y117.063 E20.2292
G1 X201.339 Y117.731 E20.25223
G1 X201.444 Y118.415 E20.27525
G1 X201.47 Y118.854 E20.28988
G1 X201.492 Y119.878 E20.32394
G1 X201.493 Y120.003 E20.3281
G1 X201.499 Y128.263 E20.60283
G1 X201.499 Y128.344 E20.60552
G1 X201.49 Y129.046 E20.62887
G1 X201.441 Y129.737 E20.65191
G1 X201.313 Y130.417 E20.67493
G1 X201.107 Y131.079 E20.69799
G1 X200.826 Y131.712 E20.72102
G1 X200.475 Y132.308 E20.74403
G1 X200.057 Y132.861 E20.76708
G1 X199.578 Y133.361 E20.79011
G1 X199.045 Y133.803 E20.81314
G1 X198.464 Y134.18 E20.83618
G1 X197.844 Y134.488 E20.85921
G1 X197.192 Y134.723 E20.88226
G1 X196.518 Y134.88 E20.90527
G1 X195.666 Y134.966 E20.93376
G1 X195.326 Y134.976 E20.94507
G1 X195.156 Y134.979 E20.95072
G1 X176.545 Y134.998 E21.56973
G1 X176.492 Y134.998 E21.57149
G1 X175.475 Y134.99 E21.60532
G1 X174.784 Y134.944 E21.62835
G1 X174.103 Y134.82 E21.65137
G1 X173.44 Y134.617 E21.67444
G1 X172.806 Y134.34 E21.69745
G1 X172.207 Y133.991 E21.72051
G1 X171.675 Y133.595 E21.74256
G1 X169.561 Y131.829 E21.83418
G1 X167.477 Y130.171 E21.92276
G1 X165.372 Y128.591 E22.0103
G1 X163.176 Y127.038 E22.09976
G1 X160.982 Y125.578 E22.18741
G1 X158.707 Y124.155 E22.27666
G1 X156.428 Y122.818 E22.36454
G1 X154.105 Y121.54 E22.45272
G1 X151.723 Y120.319 E22.54175
G1 X149.349 Y119.184 E22.62927
G1 X146.889 Y118.093 E22.71878
G1 X144.407 Y117.073 E22.80803
G1 X141.971 Y116.156 E22.8946
G1 X139.438 Y115.281 E22.98373
G1 X136.906 Y114.485 E23.07201
G1 X134.332 Y113.756 E23.16099
G1 X131.773 Y113.108 E23.24879
G1 X129.171 Y112.526 E23.33747
G1 X126.572 Y112.025 E23.4255
G1 X123.94 Y111.592 E23.51422
G1 X121.294 Y111.234 E23.60303
G1 X118.67 Y110.953 E23.6908
G1 X116.023 Y110.746 E23.77911
G1 X113.354 Y110.613 E23.86799
G1 X110.69 Y110.556 E23.95662
G1 X108.026 Y110.574 E24.04523
G1 X105.397 Y110.666 E24.13272
G1 X102.729 Y110.835 E24.22164
G1 X100.083 Y111.077 E24.31001
G1 X97.443 Y111.395 E24.39845
G1 X94.815 Y111.788 E24.48683
G1 X92.21 Y112.252 E24.57484
G1 X89.583 Y112.797 E24.66407
G1 X87.018 Y113.405 E24.75175
G1 X84.451 Y114.092 E24.84013
G1 X81.884 Y114.857 E24.92922
G1 X79.381 Y115.68 E25.01686
G1 X76.857 Y116.59 E25.10609
G1 X74.388 Y117.56 E25.19432
G1 X71.939 Y118.604 E25.28287
G1 X69.526 Y119.713 E25.3712
G1 X67.17 Y120.878 E25.45861
G1 X64.76 Y122.156 E25.54934
G1 X62.502 Y123.437 E25.63569
G1 X60.192 Y124.835 E25.7255
G1 X57.991 Y126.253 E25.81258
G1 X55.767 Y127.777 E25.90225
G1 X53.644 Y129.321 E25.98956
G1 X51.531 Y130.952 E26.07834
G1 X48.962 Y133.068 E26.18904
G1 X48.406 Y133.542 E26.21334
G1 X47.854 Y133.961 E26.23639
G1 X47.257 Y134.313 E26.25944
G1 X46.624 Y134.594 E26.28247
G1 X45.963 Y134.8 E26.3055
G1 X45.283 Y134.928 E26.32852
G1 X44.63 Y134.977 E26.3503
G1 X43.575 Y134.998 E26.38539
G1 X43.45 Y134.999 E26.38955
G1 X25.041 Y134.98 E27.00184
G1 X24.933 Y134.979 E27.00543
G1 X24.409 Y134.969 E27.02286
G1 X23.718 Y134.916 E27.04591
G1 X23.038 Y134.783 E27.06896
G1 X22.378 Y134.574 E27.09198
G1 X21.747 Y134.289 E27.11501
G1 X21.152 Y133.934 E27.13805
G1 X20.603 Y133.512 E27.16109
G1 X20.106 Y133.03 E27.18411
G1 X19.667 Y132.494 E27.20716
G1 X19.293 Y131.911 E27.23019
G1 X18.989 Y131.289 E27.25322
G1 X18.759 Y130.636 E27.27625
G1 X18.605 Y129.961 E27.29927
G1 X18.525 Y129.122 E27.32731
G1 X18.502 Y128.213 E27.35755
G1 X18.5 Y128.061 E27.36261
G1 X18.5 Y119.692 E27.64096
G1 X18.501 Y119.606 E27.64382
G1 X18.511 Y118.908 E27.66704
G1 X18.56 Y118.217 E27.69008
G1 X18.69 Y117.537 E27.7131
G1 X18.896 Y116.876 E27.73613
G1 X19.178 Y116.243 E27.75918
G1 X19.53 Y115.647 E27.7822
G1 X19.949 Y115.096 E27.80523
G1 X20.429 Y114.596 E27.82828
G1 X20.795 Y114.283 E27.8443
G1 X22.808 Y112.696 E27.92955
G1 X24.861 Y110.987 E28.0184
G1 X26.877 Y109.211 E28.10776
G1 X28.816 Y107.405 E28.19589
G1 X30.698 Y105.547 E28.28385
G1 X32.549 Y103.615 E28.37284
G1 X34.306 Y101.673 E28.45995
G1 X36.072 Y99.607 E28.55035
G1 X37.718 Y97.569 E28.63748
G1 X39.329 Y95.451 E28.72598
G1 X40.891 Y93.274 E28.8151
G1 X42.361 Y91.098 E28.90244
G1 X43.854 Y88.747 E28.99507
G1 X44.398 Y87.863 E29.0296
G1 X44.794 Y87.295 E29.05263
G1 X45.254 Y86.777 E29.07567
G1 X45.77 Y86.315 E29.0987
G1 X46.335 Y85.916 E29.12171
G1 X46.943 Y85.584 E29.14475
G0 F3600 X47.217 Y85.898
G1 F1800 X47.843 Y85.662 E29.167
G1 X48.493 Y85.502 E29.18926
G1 X49.351 Y85.411 E29.21796
G1 X49.674 Y85.402 E29.22871
G1 X49.83 Y85.4 E29.2339
G1 X169.793 Y85.4 E33.22388
G1 X169.873 Y85.401 E33.22654
G1 X170.574 Y85.411 E33.24986
G1 X171.241 Y85.46 E33.27211
G1 X171.898 Y85.589 E33.29438
G1 X172.534 Y85.795 E33.31661
G1 X173.141 Y86.075 E33.33884
G1 X173.711 Y86.426 E33.36111
G1 X174.235 Y86.843 E33.38338
G1 X174.705 Y87.319 E33.40563
G1 X175.216 Y87.999 E33.43392
G1 X175.341 Y88.195 E33.44165
G1 X175.385 Y88.265 E33.4444
G1 X176.614 Y90.257 E33.52225
G1 X178.062 Y92.463 E33.61002
G1 X179.611 Y94.681 E33.7
G1 X181.176 Y96.796 E33.78751
G1 X182.846 Y98.921 E33.8774
G1 X184.528 Y100.942 E33.96485
G1 X186.306 Y102.959 E34.05428
G1 X188.125 Y104.91 E34.143
G1 X190 Y106.808 E34.23174
G1 X191.935 Y108.661 E34.32085
G1 X193.924 Y110.46 E34.41005
G1 X195.939 Y112.181 E34.49818
G1 X197.849 Y113.726 E34.57989
G1 X198.938 Y114.585 E34.62603
G1 X199.438 Y115.03 E34.64829
G1 X199.881 Y115.532 E34.67056
G1 X200.261 Y116.082 E34.69279
G1 X200.573 Y116.674 E34.71505
G1 X200.812 Y117.299 E34.7373
G1 X200.975 Y117.948 E34.75956
G1 X201.07 Y118.863 E34.79016
G1 X201.092 Y119.887 E34.82422
G1 X201.093 Y120.003 E34.82808
G1 X201.099 Y128.263 E35.10281
G1 X201.099 Y128.339 E35.10534
G1 X201.09 Y129.041 E35.12869
G1 X201.041 Y129.708 E35.15093
G1 X200.913 Y130.365 E35.1732
G1 X200.708 Y131.002 E35.19545
G1 X200.428 Y131.609 E35.21769
G1 X200.078 Y132.179 E35.23993
G1 X199.663 Y132.704 E35.26219
G1 X199.188 Y133.175 E35.28444
G1 X198.66 Y133.586 E35.30669
G1 X198.086 Y133.931 E35.32897
G1 X197.476 Y134.205 E35.35121
G1 X196.838 Y134.404 E35.37344
G1 X196.18 Y134.526 E35.3957
G1 X195.655 Y134.567 E35.41321
G1 X195.315 Y134.577 E35.42452
G1 X195.156 Y134.579 E35.42981
G1 X176.545 Y134.598 E36.04882
G1 X176.495 Y134.598 E36.05048
G1 X175.478 Y134.59 E36.08431
G1 X174.81 Y134.545 E36.10658
G1 X174.153 Y134.42 E36.12882
G1 X173.515 Y134.218 E36.15108
G1 X172.906 Y133.941 E36.17333
G1 X172.334 Y133.594 E36.19558
G1 X171.932 Y133.288 E36.21239
G1 X169.827 Y131.53 E36.3036
G1 X167.742 Y129.871 E36.39222
G1 X165.557 Y128.231 E36.48309
G1 X163.44 Y126.733 E36.56935
G1 X161.194 Y125.239 E36.65907
G1 X158.916 Y123.814 E36.74844
G1 X156.629 Y122.472 E36.83663
G1 X154.288 Y121.185 E36.92548
G1 X151.885 Y119.952 E37.01532
G1 X149.519 Y118.821 E37.10254
G1 X147.055 Y117.728 E37.19219
G1 X144.563 Y116.705 E37.28179
G1 X142.094 Y115.775 E37.36954
G1 X139.551 Y114.897 E37.45902
G1 X137.03 Y114.104 E37.54692
G1 X134.467 Y113.378 E37.63552
G1 X131.845 Y112.714 E37.72548
G1 X129.237 Y112.131 E37.81436
G1 X126.641 Y111.631 E37.90229
G1 X123.992 Y111.195 E37.99158
G1 X121.353 Y110.837 E38.08016
G1 X118.707 Y110.554 E38.16867
G1 X116.038 Y110.346 E38.25771
G1 X113.383 Y110.214 E38.34613
G1 X110.696 Y110.156 E38.43552
G1 X108.044 Y110.173 E38.52372
G1 X105.358 Y110.267 E38.61312
G1 X102.704 Y110.436 E38.70157
G1 X100.031 Y110.681 E38.79084
G1 X97.402 Y110.997 E38.87891
G1 X94.728 Y111.397 E38.96884
G1 X92.13 Y111.859 E39.05661
G1 X89.507 Y112.404 E39.14571
G1 X86.936 Y113.014 E39.2336
G1 X84.339 Y113.708 E39.323
G1 X81.749 Y114.48 E39.41289
G1 X79.226 Y115.309 E39.50122
G1 X76.723 Y116.213 E39.58974
G1 X74.251 Y117.183 E39.67806
G1 X71.794 Y118.231 E39.7669
G1 X69.346 Y119.356 E39.85651
G1 X66.956 Y120.538 E39.94519
G1 X64.596 Y121.789 E40.03403
G1 X62.303 Y123.09 E40.12172
G1 X59.99 Y124.49 E40.21164
G1 X57.754 Y125.931 E40.30012
G1 X55.552 Y127.439 E40.38888
G1 X53.37 Y129.026 E40.47862
G1 X51.281 Y130.638 E40.56639
G1 X48.739 Y132.732 E40.67592
G1 X48.146 Y133.238 E40.70185
G1 X47.612 Y133.641 E40.7241
G1 X47.034 Y133.978 E40.74636
G1 X46.42 Y134.243 E40.7686
G1 X45.778 Y134.433 E40.79087
G1 X45.119 Y134.545 E40.8131
G1 X44.622 Y134.577 E40.82967
G1 X43.567 Y134.598 E40.86476
G1 X43.45 Y134.599 E40.86865
G1 X25.041 Y134.58 E41.48094
G1 X24.94 Y134.579 E41.4843
G1 X24.416 Y134.569 E41.50173
