;FLAVOR:Marlin
;TIME:1333
;Filament used: 2.14321m
;Layer height: 0.4
;MINX:84.6
;MINY:76.601
;MINZ:0.2
;MAXX:121.4
;MAXY:151.399
;MAXZ:9
;Generated with Cura_SteamEngine 4.1.0
M140 S60
M105
M190 S60
M104 S200
M105
M109 S200
M82 ;absolute extrusion mode
; Ender 3 Custom Start G-code
G28 ; Home all axes
G92 E0 ; Reset Extruder
G1 Z2.0 F3000 ; Move Z Axis up little to prevent scratching of Heat Bed
G1 X0.1 Y20 Z0.3 F5000.0 ; Move to start position
G1 X0.1 Y200.0 Z0.3 F1500.0 E15 ; Draw the first line
G1 X0.4 Y200.0 Z0.3 F5000.0 ; Move to side a little
G1 X0.4 Y20 Z0.3 F1500.0 E30 ; Draw the second line
G92 E0 ; Reset Extruder
G1 Z2.0 F3000 ; Move Z Axis up little to prevent scratching of Heat Bed
; End of custom start GCode
G92 E0
G92 E0
G1 F2400 E-5
;LAYER_COUNT:23
;LAYER:0
M107
M204 S500
M205 X10 Y10
G0 F3600 X86.908 Y86.67 Z0.2
;TYPE:SKIRT
G1 F2400 E0
G1 F1800 X87.44 Y86.193 E0.02377
G1 X88.022 Y85.777 E0.04756
G1 X88.665 Y85.421 E0.072
G1 X90.746 Y84.419 E0.14882
G1 X93.116 Y83.191 E0.2376
G1 X95.426 Y81.911 E0.32544
G1 X97.691 Y80.57 E0.41299
G1 X99.951 Y79.146 E0.50183
G1 X100.682 Y78.653 E0.53116
G1 X100.75 Y78.608 E0.53387
G1 X101.863 Y77.877 E0.57816
G1 X102.657 Y77.432 E0.60843
G1 X103.049 Y77.248 E0.62284
G1 X103.712 Y76.981 E0.64661
G1 X104.401 Y76.79 E0.67039
G1 X105.231 Y76.665 E0.69831
G1 X105.504 Y76.642 E0.70742
G1 X105.804 Y76.623 E0.71742
G1 X106.29 Y76.605 E0.73359
G1 X106.527 Y76.601 E0.74148
G1 X113.328 Y76.601 E0.96768
G1 X113.418 Y76.602 E0.97067
G1 X114.061 Y76.611 E0.99206
G1 X114.774 Y76.661 E1.01583
G1 X115.192 Y76.727 E1.02991
G1 X115.578 Y76.802 E1.04299
G1 X116.271 Y76.978 E1.06677
G1 X116.941 Y77.23 E1.09058
G1 X117.653 Y77.599 E1.11725
G1 X117.946 Y77.775 E1.12862
G1 X118.537 Y78.177 E1.15239
G1 X119.08 Y78.642 E1.17617
G1 X119.623 Y79.232 E1.20284
G1 X119.832 Y79.49 E1.21388
G1 X120.25 Y80.071 E1.23769
G1 X120.602 Y80.694 E1.26149
G1 X120.902 Y81.411 E1.28734
G1 X121.022 Y81.755 E1.29945
G1 X121.219 Y82.442 E1.32322
G1 X121.339 Y83.148 E1.34704
G1 X121.378 Y83.769 E1.36774
G1 X121.389 Y84.518 E1.39265
G1 X121.39 Y84.611 E1.39575
G1 X121.4 Y135.147 E3.07658
G1 X121.399 Y135.238 E3.07961
G1 X121.39 Y135.881 E3.101
G1 X121.376 Y136.223 E3.11238
G1 X121.359 Y136.474 E3.12075
G1 X121.342 Y136.679 E3.12759
G1 X121.32 Y136.899 E3.13494
G1 X121.209 Y137.605 E3.15871
G1 X121.02 Y138.295 E3.18251
G1 X120.785 Y138.895 E3.20394
G1 X120.697 Y139.09 E3.21106
G1 X120.6 Y139.295 E3.2186
G1 X120.552 Y139.392 E3.2222
G1 X120.2 Y140.015 E3.246
G1 X119.78 Y140.594 E3.26979
G1 X119.35 Y141.071 E3.29115
G1 X119.092 Y141.33 E3.30331
G1 X118.56 Y141.807 E3.32707
G1 X117.978 Y142.223 E3.35087
G1 X117.335 Y142.579 E3.37531
G1 X115.254 Y143.581 E3.45213
G1 X112.884 Y144.809 E3.54091
G1 X110.574 Y146.089 E3.62875
G1 X108.309 Y147.43 E3.7163
G1 X106.049 Y148.854 E3.80514
G1 X105.318 Y149.347 E3.83447
G1 X105.25 Y149.392 E3.83718
G1 X104.137 Y150.123 E3.88147
G1 X103.343 Y150.568 E3.91174
G1 X102.951 Y150.752 E3.92614
G1 X102.288 Y151.019 E3.94992
G1 X101.599 Y151.21 E3.9737
G1 X100.769 Y151.335 E4.00161
G1 X100.496 Y151.358 E4.01073
G1 X100.196 Y151.377 E4.02073
G1 X99.71 Y151.395 E4.0369
G1 X99.473 Y151.399 E4.04478
G1 X92.672 Y151.399 E4.27099
G1 X92.582 Y151.398 E4.27398
G1 X91.939 Y151.389 E4.29537
G1 X91.226 Y151.339 E4.31914
G1 X90.808 Y151.273 E4.33322
G1 X90.422 Y151.198 E4.34629
G1 X89.729 Y151.022 E4.37008
G1 X89.059 Y150.77 E4.39388
G1 X88.347 Y150.401 E4.42056
G1 X88.054 Y150.225 E4.43192
G1 X87.463 Y149.823 E4.4557
G1 X86.92 Y149.358 E4.47948
G1 X86.377 Y148.768 E4.50614
G1 X86.168 Y148.51 E4.51719
G1 X85.75 Y147.929 E4.54099
G1 X85.398 Y147.306 E4.56479
G1 X85.092 Y146.572 E4.59124
G1 X84.971 Y146.222 E4.60356
G1 X84.776 Y145.534 E4.62734
G1 X84.658 Y144.829 E4.65112
G1 X84.622 Y144.302 E4.66869
G1 X84.608 Y143.779 E4.68609
G1 X84.606 Y143.661 E4.69001
G1 X84.6 Y142.94 E4.714
G1 X84.6 Y92.895 E6.3785
G1 X84.601 Y92.804 E6.38153
G1 X84.611 Y92.097 E6.40504
G1 X84.625 Y91.746 E6.41673
G1 X84.641 Y91.515 E6.42443
G1 X84.658 Y91.317 E6.43104
G1 X84.68 Y91.098 E6.43836
G1 X84.791 Y90.392 E6.46213
G1 X84.98 Y89.702 E6.48592
G1 X85.215 Y89.105 E6.50726
G1 X85.303 Y88.91 E6.51438
G1 X85.4 Y88.705 E6.52192
G1 X85.448 Y88.608 E6.52552
G1 X85.8 Y87.985 E6.54932
G1 X86.22 Y87.406 E6.57311
G1 X86.65 Y86.929 E6.59447
G1 X86.908 Y86.67 E6.60663
G0 F3600 X87.191 Y86.953
G1 F1800 X87.707 Y86.491 E6.62967
G1 X88.273 Y86.092 E6.6527
G1 X88.838 Y85.781 E6.67415
G1 X90.966 Y84.756 E6.75271
G1 X93.287 Y83.553 E6.83966
G1 X95.618 Y82.262 E6.92829
G1 X97.913 Y80.904 E7.01698
G1 X100.151 Y79.493 E7.10498
G1 X100.906 Y78.984 E7.13526
G1 X100.969 Y78.942 E7.13778
G1 X102.082 Y78.211 E7.18207
G1 X102.827 Y77.795 E7.21045
G1 X103.219 Y77.611 E7.22485
G1 X103.861 Y77.353 E7.24786
G1 X104.53 Y77.171 E7.27092
G1 X105.264 Y77.063 E7.2956
G1 X105.537 Y77.04 E7.30471
G1 X105.819 Y77.023 E7.31411
G1 X106.305 Y77.005 E7.33028
G1 X106.527 Y77.001 E7.33767
G1 X113.328 Y77.001 E7.56387
G1 X113.412 Y77.002 E7.56666
G1 X114.055 Y77.011 E7.58805
G1 X114.746 Y77.06 E7.61109
G1 X115.115 Y77.12 E7.62353
G1 X115.501 Y77.195 E7.63661
G1 X116.172 Y77.366 E7.65964
G1 X116.819 Y77.614 E7.68268
G1 X117.447 Y77.942 E7.70625
G1 X117.74 Y78.118 E7.71762
G1 X118.312 Y78.508 E7.74064
G1 X118.835 Y78.961 E7.76366
G1 X119.312 Y79.484 E7.7872
G1 X119.521 Y79.742 E7.79824
G1 X119.925 Y80.305 E7.82129
G1 X120.262 Y80.91 E7.84432
G1 X120.524 Y81.543 E7.86711
G1 X120.644 Y81.887 E7.87923
G1 X120.834 Y82.553 E7.90226
G1 X120.946 Y83.236 E7.92528
G1 X120.978 Y83.775 E7.94324
G1 X120.989 Y84.524 E7.96816
G1 X120.99 Y84.611 E7.97105
G1 X121 Y135.147 E9.65188
G1 X120.999 Y135.232 E9.65471
G1 X120.99 Y135.875 E9.6761
G1 X120.977 Y136.196 E9.68678
G1 X120.96 Y136.447 E9.69515
G1 X120.944 Y136.639 E9.70156
G1 X120.922 Y136.859 E9.70891
G1 X120.814 Y137.543 E9.73194
G1 X120.627 Y138.21 E9.75498
G1 X120.421 Y138.73 E9.77359
G1 X120.333 Y138.925 E9.7807
G1 X120.242 Y139.118 E9.7878
G1 X120.194 Y139.215 E9.7914
G1 X119.851 Y139.817 E9.81444
G1 X119.442 Y140.375 E9.83746
G1 X119.067 Y140.788 E9.85601
G1 X118.809 Y141.047 E9.86817
G1 X118.293 Y141.509 E9.8912
G1 X117.727 Y141.908 E9.91424
G1 X117.162 Y142.219 E9.93569
G1 X115.034 Y143.244 E10.01425
G1 X112.713 Y144.447 E10.1012
G1 X110.382 Y145.738 E10.18982
G1 X108.097 Y147.09 E10.27813
G1 X105.849 Y148.507 E10.36651
G1 X105.094 Y149.016 E10.3968
G1 X105.031 Y149.058 E10.39932
G1 X103.918 Y149.789 E10.44361
G1 X103.173 Y150.205 E10.47199
G1 X102.781 Y150.389 E10.48639
G1 X102.139 Y150.647 E10.5094
G1 X101.47 Y150.829 E10.53246
G1 X100.736 Y150.937 E10.55714
G1 X100.463 Y150.96 E10.56625
G1 X100.181 Y150.977 E10.57565
G1 X99.695 Y150.995 E10.59182
G1 X99.473 Y150.999 E10.59921
G1 X92.672 Y150.999 E10.82541
G1 X92.588 Y150.998 E10.8282
G1 X91.945 Y150.989 E10.84959
G1 X91.254 Y150.94 E10.87263
G1 X90.885 Y150.88 E10.88507
G1 X90.499 Y150.805 E10.89814
G1 X89.828 Y150.634 E10.92117
G1 X89.181 Y150.386 E10.94422
G1 X88.553 Y150.058 E10.96779
G1 X88.26 Y149.882 E10.97915
G1 X87.688 Y149.492 E11.00218
G1 X87.165 Y149.039 E11.02519
G1 X86.688 Y148.516 E11.04874
G1 X86.479 Y148.258 E11.05978
G1 X86.075 Y147.695 E11.08283
G1 X85.738 Y147.09 E11.10586
G1 X85.47 Y146.441 E11.12921
G1 X85.349 Y146.091 E11.14153
G1 X85.161 Y145.425 E11.16455
G1 X85.051 Y144.741 E11.18759
G1 X85.022 Y144.292 E11.20256
G1 X85.008 Y143.769 E11.21996
G1 X85.006 Y143.658 E11.22365
G1 X85 Y142.937 E11.24763
G1 X85 Y92.895 E12.91203
G1 X85.001 Y92.81 E12.91486
G1 X85.011 Y92.103 E12.93838
G1 X85.024 Y91.773 E12.94936
G1 X85.04 Y91.542 E12.95706
G1 X85.056 Y91.357 E12.96324
G1 X85.078 Y91.138 E12.97056
G1 X85.187 Y90.454 E12.9936
G1 X85.374 Y89.788 E13.01661
G1 X85.579 Y89.27 E13.03514
G1 X85.667 Y89.075 E13.04225
G1 X85.758 Y88.882 E13.04935
G1 X85.806 Y88.785 E13.05295
G1 X86.149 Y88.183 E13.07599
G1 X86.558 Y87.625 E13.099
G1 X86.933 Y87.212 E13.11756
G1 X87.191 Y86.953 E13.12972
G0 F3600 X87.475 Y87.235
G1 F1800 X87.974 Y86.79 E13.15195
G1 X88.523 Y86.408 E13.1742
G1 X89.012 Y86.142 E13.19271
G1 X91.117 Y85.128 E13.27043
G1 X93.486 Y83.901 E13.35916
G1 X95.81 Y82.613 E13.44753
G1 X98.108 Y81.253 E13.53635
G1 X100.396 Y79.811 E13.6263
G1 X101.13 Y79.316 E13.65575
G1 X101.189 Y79.276 E13.65812
G1 X102.302 Y78.545 E13.70241
G1 X102.997 Y78.157 E13.72888
G1 X103.389 Y77.973 E13.74328
G1 X104.01 Y77.725 E13.76552
G1 X104.657 Y77.553 E13.78779
G1 X105.298 Y77.462 E13.80932
G1 X105.571 Y77.439 E13.81844
G1 X105.834 Y77.423 E13.8272
G1 X106.32 Y77.405 E13.84337
G1 X106.527 Y77.401 E13.85026
G1 X113.328 Y77.401 E14.07646
G1 X113.406 Y77.402 E14.07906
G1 X114.049 Y77.411 E14.10045
G1 X115.039 Y77.513 E14.13355
G1 X115.425 Y77.588 E14.14663
G1 X116.073 Y77.754 E14.16887
G1 X116.697 Y77.997 E14.19115
G1 X117.241 Y78.284 E14.2116
G1 X117.534 Y78.46 E14.22297
G1 X118.085 Y78.839 E14.24522
G1 X118.588 Y79.28 E14.26747
G1 X119.001 Y79.736 E14.28793
G1 X119.21 Y79.994 E14.29897
G1 X119.6 Y80.538 E14.32123
G1 X119.921 Y81.125 E14.34349
G1 X120.147 Y81.675 E14.36326
G1 X120.267 Y82.019 E14.37538
G1 X120.449 Y82.662 E14.39761
G1 X120.553 Y83.323 E14.41986
G1 X120.578 Y83.781 E14.43512
G1 X120.589 Y84.53 E14.46003
G1 X120.59 Y84.611 E14.46273
G1 X120.6 Y135.147 E16.14356
G1 X120.599 Y135.226 E16.14619
G1 X120.59 Y135.869 E16.16758
G1 X120.578 Y136.169 E16.17756
G1 X120.561 Y136.42 E16.18593
G1 X120.546 Y136.599 E16.19191
G1 X120.524 Y136.819 E16.19926
G1 X120.418 Y137.48 E16.22153
G1 X120.234 Y138.123 E16.24377
G1 X120.056 Y138.565 E16.25962
G1 X119.968 Y138.76 E16.26673
G1 X119.883 Y138.941 E16.27338
G1 X119.835 Y139.038 E16.27698
G1 X119.503 Y139.619 E16.29924
G1 X119.104 Y140.156 E16.32149
G1 X118.783 Y140.506 E16.33729
G1 X118.525 Y140.765 E16.34945
G1 X118.026 Y141.21 E16.37168
G1 X117.477 Y141.592 E16.39393
G1 X116.988 Y141.858 E16.41244
G1 X114.883 Y142.872 E16.49016
G1 X112.514 Y144.099 E16.57889
G1 X110.19 Y145.387 E16.66727
G1 X107.892 Y146.747 E16.75608
G1 X105.604 Y148.189 E16.84603
G1 X104.87 Y148.684 E16.87548
G1 X104.811 Y148.724 E16.87785
G1 X103.698 Y149.455 E16.92214
G1 X103.003 Y149.843 E16.94861
G1 X102.611 Y150.027 E16.96301
G1 X101.99 Y150.275 E16.98525
G1 X101.343 Y150.447 E17.00752
G1 X100.702 Y150.538 E17.02905
G1 X100.429 Y150.561 E17.03817
G1 X100.166 Y150.577 E17.04693
G1 X99.68 Y150.595 E17.06311
G1 X99.473 Y150.599 E17.06999
G1 X92.672 Y150.599 E17.29619
G1 X92.594 Y150.598 E17.29879
G1 X91.951 Y150.589 E17.32018
G1 X90.961 Y150.487 E17.35328
G1 X90.575 Y150.412 E17.36636
G1 X89.927 Y150.246 E17.38861
G1 X89.303 Y150.003 E17.41088
G1 X88.759 Y149.716 E17.43134
G1 X88.466 Y149.54 E17.4427
G1 X87.915 Y149.161 E17.46495
G1 X87.412 Y148.72 E17.4872
G1 X86.999 Y148.264 E17.50766
G1 X86.79 Y148.006 E17.5187
G1 X86.4 Y147.462 E17.54096
G1 X86.079 Y146.875 E17.56322
G1 X85.848 Y146.311 E17.58349
G1 X85.727 Y145.961 E17.59581
G1 X85.547 Y145.317 E17.61805
G1 X85.445 Y144.655 E17.64032
G1 X85.422 Y144.281 E17.65279
G1 X85.408 Y143.758 E17.67019
G1 X85.406 Y143.655 E17.67361
G1 X85.4 Y142.934 E17.6976
G1 X85.4 Y92.895 E19.3619
G1 X85.401 Y92.816 E19.36453
G1 X85.411 Y92.109 E19.38804
G1 X85.423 Y91.801 E19.3983
G1 X85.439 Y91.57 E19.406
G1 X85.454 Y91.397 E19.41177
G1 X85.476 Y91.178 E19.41909
G1 X85.583 Y90.518 E19.44133
G1 X85.767 Y89.875 E19.46358
G1 X85.944 Y89.435 E19.47935
G1 X86.032 Y89.24 E19.48647
G1 X86.117 Y89.059 E19.49312
G1 X86.165 Y88.962 E19.49672
G1 X86.497 Y88.381 E19.51897
G1 X86.896 Y87.844 E19.54123
G1 X87.217 Y87.494 E19.55702
G1 X87.475 Y87.235 E19.56918
G0 F3600 X87.758 Y87.517
G1 F1800 X88.24 Y87.09 E19.5906
G1 X88.772 Y86.725 E19.61206
G1 X89.186 Y86.502 E19.6277
G1 X91.296 Y85.486 E19.70559
G1 X93.67 Y84.256 E19.79452
G1 X96.027 Y82.95 E19.88414
G1 X98.335 Y81.584 E19.97334
G1 X100.567 Y80.177 E20.0611
G1 X101.353 Y79.647 E20.09263
G1 X101.408 Y79.611 E20.09481
G1 X102.521 Y78.88 E20.1391
G1 X103.166 Y78.519 E20.16369
G1 X103.558 Y78.335 E20.17809
G1 X104.158 Y78.098 E20.19955
G1 X104.782 Y77.936 E20.22099
G1 X105.331 Y77.86 E20.23942
G1 X105.604 Y77.837 E20.24853
G1 X105.849 Y77.823 E20.2567
G1 X106.335 Y77.805 E20.27287
G1 X106.527 Y77.801 E20.27926
G1 X113.328 Y77.801 E20.50546
G1 X113.401 Y77.802 E20.50789
G1 X114.044 Y77.811 E20.52928
G1 X114.963 Y77.905 E20.56
G1 X115.349 Y77.98 E20.57308
G1 X115.973 Y78.142 E20.59452
G1 X116.572 Y78.38 E20.61596
G1 X117.035 Y78.627 E20.63342
G1 X117.328 Y78.803 E20.64478
G1 X117.859 Y79.169 E20.66623
G1 X118.34 Y79.597 E20.68765
G1 X118.691 Y79.988 E20.70512
G1 X118.9 Y80.246 E20.71617
G1 X119.274 Y80.771 E20.73761
G1 X119.58 Y81.338 E20.75904
G1 X119.769 Y81.806 E20.77582
G1 X119.889 Y82.15 E20.78794
G1 X120.063 Y82.771 E20.80939
G1 X120.159 Y83.408 E20.83082
G1 X120.178 Y83.787 E20.84344
G1 X120.189 Y84.536 E20.86835
G1 X120.19 Y84.611 E20.87085
G1 X120.2 Y135.147 E22.55168
G1 X120.199 Y135.221 E22.55414
G1 X120.19 Y135.864 E22.57553
G1 X120.179 Y136.142 E22.58479
G1 X120.162 Y136.393 E22.59315
G1 X120.148 Y136.559 E22.59869
G1 X120.126 Y136.779 E22.60605
G1 X120.022 Y137.416 E22.62752
G1 X119.841 Y138.034 E22.64893
G1 X119.692 Y138.401 E22.66211
G1 X119.604 Y138.596 E22.66922
G1 X119.525 Y138.763 E22.67537
G1 X119.477 Y138.86 E22.67897
G1 X119.155 Y139.419 E22.70042
G1 X118.768 Y139.934 E22.72185
G1 X118.5 Y140.224 E22.73498
G1 X118.242 Y140.483 E22.74714
G1 X117.76 Y140.91 E22.76856
G1 X117.228 Y141.275 E22.79002
G1 X116.814 Y141.498 E22.80566
G1 X114.704 Y142.514 E22.88355
G1 X112.33 Y143.744 E22.97248
G1 X109.973 Y145.05 E23.0621
G1 X107.665 Y146.416 E23.1513
G1 X105.433 Y147.823 E23.23906
G1 X104.647 Y148.353 E23.27059
G1 X104.592 Y148.389 E23.27278
G1 X103.479 Y149.12 E23.31706
G1 X102.834 Y149.481 E23.34165
G1 X102.442 Y149.665 E23.35605
G1 X101.842 Y149.902 E23.37751
G1 X101.218 Y150.064 E23.39895
G1 X100.669 Y150.14 E23.41738
G1 X100.396 Y150.163 E23.4265
G1 X100.151 Y150.177 E23.43466
G1 X99.665 Y150.195 E23.45083
G1 X99.473 Y150.199 E23.45722
G1 X92.672 Y150.199 E23.68342
G1 X92.599 Y150.198 E23.68585
G1 X91.956 Y150.189 E23.70724
G1 X91.037 Y150.095 E23.73797
G1 X90.651 Y150.02 E23.75104
G1 X90.027 Y149.858 E23.77249
G1 X89.428 Y149.62 E23.79392
G1 X88.965 Y149.373 E23.81138
G1 X88.672 Y149.197 E23.82275
G1 X88.141 Y148.831 E23.8442
G1 X87.66 Y148.403 E23.86561
G1 X87.309 Y148.012 E23.88309
G1 X87.1 Y147.754 E23.89413
G1 X86.726 Y147.229 E23.91557
G1 X86.42 Y146.662 E23.937
G1 X86.226 Y146.18 E23.95428
G1 X86.105 Y145.83 E23.9666
G1 X85.933 Y145.209 E23.98803
G1 X85.822 Y144.27 E24.01948
G1 X85.808 Y143.747 E24.03688
G1 X85.806 Y143.651 E24.04007
G1 X85.8 Y142.93 E24.06406
G1 X85.8 Y92.895 E25.72823
G1 X85.801 Y92.821 E25.73069
G1 X85.811 Y92.114 E25.7542
G1 X85.822 Y91.829 E25.76369
G1 X85.838 Y91.598 E25.77139
G1 X85.852 Y91.437 E25.77677
G1 X85.874 Y91.218 E25.78409
G1 X85.978 Y90.582 E25.80552
G1 X86.16 Y89.964 E25.82695
G1 X86.308 Y89.599 E25.84005
G1 X86.396 Y89.404 E25.84717
G1 X86.475 Y89.237 E25.85331
G1 X86.523 Y89.14 E25.85691
G1 X86.845 Y88.581 E25.87837
G1 X87.232 Y88.066 E25.89979
G1 X87.5 Y87.776 E25.91293
G1 X87.758 Y87.517 E25.92509
G1 F2400 E20.92509
;MESH:brackets2.stl(1)
G0 F3600 X92.091 Y90.341
G0 X92.181 Y91.62
G0 X100.195 Y91.784
G0 X100.261 Y91.71
;TYPE:WALL-INNER
G1 F2400 E25.92509
G1 F1800 X100.346 Y91.818 E25.92966
G1 X100.39 Y91.953 E25.93438
G1 X100.4 Y143.79 E27.65848
G1 X100.372 Y144.112 E27.66923
G1 X100.315 Y144.23 E27.67359
G1 X100.218 Y144.324 E27.67809
G1 X100.091 Y144.38 E27.6827
G1 X99.819 Y144.399 E27.69177
G1 X92.029 Y144.399 E27.95087
G1 X91.852 Y144.361 E27.95689
