;FLAVOR:Marlin
;TIME:4634
;Filament used: 7.9273m
;Layer height: 0.4
;MINX:56.1
;MINY:53.6
;MINZ:0.2
;MAXX:163.9
;MAXY:166.4
;MAXZ:7
;Generated with Cura_SteamEngine 4.1.0
M140 S60
M105
M190 S60
M104 S200
M105
M109 S200
M82 ;absolute extrusion mode
; Ender 3 Custom Start G-code
G28 ; Home all axes
G92 E0 ; Reset Extruder
G1 Z2.0 F3000 ; Move Z Axis up little to prevent scratching of Heat Bed
G1 X0.1 Y20 Z0.3 F5000.0 ; Move to start position
G1 X0.1 Y200.0 Z0.3 F1500.0 E15 ; Draw the first line
G1 X0.4 Y200.0 Z0.3 F5000.0 ; Move to side a little
G1 X0.4 Y20 Z0.3 F1500.0 E30 ; Draw the second line
G92 E0 ; Reset Extruder
G1 Z2.0 F3000 ; Move Z Axis up little to prevent scratching of Heat Bed
; End of custom start GCode
G92 E0
G92 E0
G1 F2400 E-5
;LAYER_COUNT:18
;LAYER:0
M107
M204 S500
M205 X10 Y10
G0 F3600 X58.033 Y55.435 Z0.2
;TYPE:SKIRT
G1 F2400 E0
G1 F1800 X58.571 Y54.964 E0.02378
G1 X59.159 Y54.556 E0.04759
G1 X59.788 Y54.216 E0.07137
G1 X60.452 Y53.949 E0.09517
G1 X61.141 Y53.757 E0.11896
G1 X61.847 Y53.643 E0.14275
G1 X62.33 Y53.612 E0.15884
G1 X62.651 Y53.603 E0.16952
G1 X62.83 Y53.6 E0.17548
G1 X92.293 Y53.6 E1.15542
G1 X92.385 Y53.601 E1.15848
G1 X93.083 Y53.611 E1.1817
G1 X93.995 Y53.689 E1.21214
G1 X95.421 Y53.916 E1.26017
G1 X98.086 Y54.296 E1.34971
G1 X100.711 Y54.596 E1.43758
G1 X103.359 Y54.824 E1.52598
G1 X106.021 Y54.975 E1.61466
G1 X108.634 Y55.051 E1.70161
G1 X111.275 Y55.053 E1.78945
G1 X113.947 Y54.979 E1.87835
G1 X116.596 Y54.83 E1.9666
G1 X119.192 Y54.611 E2.05325
G1 X121.851 Y54.311 E2.14225
G1 X124.52 Y53.933 E2.2319
G1 X125.929 Y53.7 E2.2794
G1 X126.722 Y53.619 E2.30592
G1 X127.08 Y53.605 E2.31783
G1 X127.33 Y53.6 E2.32615
G1 X156.793 Y53.6 E3.30609
G1 X156.876 Y53.601 E3.30885
G1 X157.574 Y53.61 E3.33207
G1 X158.287 Y53.659 E3.35584
G1 X158.991 Y53.787 E3.37964
G1 X159.676 Y53.993 E3.40343
G1 X160.333 Y54.275 E3.42721
G1 X160.955 Y54.628 E3.451
G1 X161.534 Y55.048 E3.47479
G1 X162.063 Y55.53 E3.49859
G1 X162.534 Y56.068 E3.52237
G1 X162.942 Y56.655 E3.54615
G1 X163.282 Y57.285 E3.56996
G1 X163.55 Y57.948 E3.59375
G1 X163.742 Y58.637 E3.61754
G1 X163.856 Y59.343 E3.64132
G1 X163.888 Y59.83 E3.65755
G1 X163.897 Y60.151 E3.66824
G1 X163.9 Y60.33 E3.67419
G1 X163.9 Y92.274 E4.73665
G1 X163.899 Y92.363 E4.73961
G1 X163.889 Y93.079 E4.76343
G1 X163.811 Y93.994 E4.79397
G1 X163.585 Y95.42 E4.84199
G1 X163.207 Y98.06 E4.93069
G1 X162.906 Y100.692 E5.01881
G1 X162.676 Y103.359 E5.10784
G1 X162.525 Y106.021 E5.19652
G1 X162.449 Y108.617 E5.2829
G1 X162.447 Y111.265 E5.37097
G1 X162.521 Y113.948 E5.46024
G1 X162.67 Y116.596 E5.54846
G1 X162.889 Y119.192 E5.63511
G1 X163.189 Y121.851 E5.72411
G1 X163.567 Y124.52 E5.81376
G1 X163.8 Y125.929 E5.86126
G1 X163.881 Y126.722 E5.88778
G1 X163.895 Y127.08 E5.89969
G1 X163.9 Y127.33 E5.90801
G1 X163.9 Y159.343 E6.97277
G1 X163.891 Y160.07 E6.99695
G1 X163.842 Y160.784 E7.02075
G1 X163.714 Y161.488 E7.04455
G1 X163.508 Y162.173 E7.06834
G1 X163.227 Y162.83 E7.09211
G1 X162.874 Y163.453 E7.11592
G1 X162.454 Y164.032 E7.13972
G1 X161.972 Y164.56 E7.16349
G1 X161.435 Y165.032 E7.18727
G1 X160.847 Y165.44 E7.21108
G1 X160.218 Y165.781 E7.23487
G1 X159.555 Y166.049 E7.25866
G1 X158.866 Y166.241 E7.28245
G1 X158.16 Y166.356 E7.30624
G1 X157.67 Y166.388 E7.32257
G1 X157.349 Y166.397 E7.33325
G1 X157.17 Y166.4 E7.33921
G1 X127.707 Y166.4 E8.31915
G1 X127.615 Y166.399 E8.32221
G1 X126.918 Y166.389 E8.34539
G1 X126.006 Y166.311 E8.37584
G1 X124.58 Y166.085 E8.42386
G1 X121.914 Y165.704 E8.51343
G1 X119.289 Y165.404 E8.60131
G1 X116.641 Y165.176 E8.68971
G1 X113.979 Y165.025 E8.77839
G1 X111.366 Y164.949 E8.86533
G1 X108.725 Y164.947 E8.95317
G1 X106.053 Y165.021 E9.04208
G1 X103.404 Y165.17 E9.13032
G1 X100.808 Y165.389 E9.21697
G1 X98.149 Y165.689 E9.30597
G1 X95.48 Y166.067 E9.39563
G1 X94.071 Y166.3 E9.44313
G1 X93.278 Y166.381 E9.46964
G1 X92.92 Y166.395 E9.48156
G1 X92.67 Y166.4 E9.48988
G1 X63.207 Y166.4 E10.46982
G1 X63.124 Y166.399 E10.47258
G1 X62.426 Y166.39 E10.4958
G1 X61.713 Y166.341 E10.51957
G1 X61.009 Y166.213 E10.54337
G1 X60.324 Y166.007 E10.56716
G1 X59.667 Y165.725 E10.59094
G1 X59.045 Y165.372 E10.61473
G1 X58.466 Y164.952 E10.63852
G1 X57.937 Y164.47 E10.66232
G1 X57.466 Y163.932 E10.6861
G1 X57.058 Y163.345 E10.70988
G1 X56.718 Y162.715 E10.73369
G1 X56.45 Y162.052 E10.75747
G1 X56.258 Y161.363 E10.78126
G1 X56.144 Y160.657 E10.80505
G1 X56.111 Y160.164 E10.82148
G1 X56.102 Y159.831 E10.83256
G1 X56.1 Y159.658 E10.83832
G1 X56.1 Y127.707 E11.90101
G1 X56.101 Y127.615 E11.90407
G1 X56.111 Y126.918 E11.92726
G1 X56.189 Y126.006 E11.9577
G1 X56.415 Y124.58 E12.00572
G1 X56.796 Y121.914 E12.09529
G1 X57.096 Y119.289 E12.18317
G1 X57.324 Y116.641 E12.27157
G1 X57.475 Y113.979 E12.36025
G1 X57.551 Y111.366 E12.44719
G1 X57.553 Y108.724 E12.53507
G1 X57.479 Y106.052 E12.62397
G1 X57.33 Y103.406 E12.71212
G1 X57.11 Y100.801 E12.79907
G1 X56.811 Y98.152 E12.88774
G1 X56.437 Y95.508 E12.97655
G1 X56.195 Y94.042 E13.02597
G1 X56.113 Y93.194 E13.05431
G1 X56.103 Y92.863 E13.06532
G1 X56.1 Y92.67 E13.07174
G1 X56.1 Y60.674 E14.13593
G1 X56.101 Y60.587 E14.13883
G1 X56.11 Y59.922 E14.16095
G1 X56.159 Y59.209 E14.18472
G1 X56.288 Y58.505 E14.20852
G1 X56.495 Y57.821 E14.23229
G1 X56.777 Y57.163 E14.2561
G1 X57.13 Y56.541 E14.27989
G1 X57.55 Y55.963 E14.30365
G1 X58.033 Y55.435 E14.32745
G0 F3600 X58.424 Y55.614
G1 F1800 X58.958 Y55.173 E14.35049
G1 X59.539 Y54.796 E14.37352
G1 X60.159 Y54.488 E14.39655
G1 X60.811 Y54.254 E14.41959
G1 X61.485 Y54.097 E14.44261
G1 X62.341 Y54.011 E14.47122
G1 X62.662 Y54.002 E14.4819
G1 X62.83 Y54 E14.48749
G1 X92.293 Y54 E15.46743
G1 X92.379 Y54.001 E15.47029
G1 X93.077 Y54.011 E15.49351
G1 X93.933 Y54.084 E15.52208
G1 X95.367 Y54.312 E15.57038
G1 X98.056 Y54.696 E15.66072
G1 X100.668 Y54.994 E15.74816
G1 X103.338 Y55.224 E15.83729
G1 X105.987 Y55.375 E15.92554
G1 X108.621 Y55.451 E16.01319
G1 X111.286 Y55.453 E16.10183
G1 X113.947 Y55.38 E16.19036
G1 X116.613 Y55.229 E16.27918
G1 X119.273 Y55.005 E16.36796
G1 X121.881 Y54.711 E16.45525
G1 X124.554 Y54.332 E16.54505
G1 X125.994 Y54.094 E16.59359
G1 X126.738 Y54.019 E16.61846
G1 X127.096 Y54.005 E16.63038
G1 X127.33 Y54 E16.63816
G1 X156.87 Y54 E17.62067
G1 X157.568 Y54.009 E17.64389
G1 X158.259 Y54.058 E17.66693
G1 X158.94 Y54.187 E17.68998
G1 X159.601 Y54.392 E17.713
G1 X160.234 Y54.673 E17.73603
G1 X160.831 Y55.024 E17.75907
G1 X161.383 Y55.442 E17.7821
G1 X161.883 Y55.921 E17.80513
G1 X162.325 Y56.455 E17.82818
G1 X162.702 Y57.035 E17.85119
G1 X163.01 Y57.656 E17.87424
G1 X163.245 Y58.307 E17.89726
G1 X163.402 Y58.982 E17.92031
G1 X163.489 Y59.841 E17.94903
G1 X163.498 Y60.162 E17.95971
G1 X163.5 Y60.33 E17.9653
G1 X163.5 Y92.274 E19.02776
G1 X163.499 Y92.358 E19.03056
G1 X163.489 Y93.074 E19.05437
G1 X163.416 Y93.931 E19.08298
G1 X163.19 Y95.357 E19.131
G1 X162.804 Y98.056 E19.22168
G1 X162.507 Y100.658 E19.30879
G1 X162.276 Y103.338 E19.39826
G1 X162.125 Y105.987 E19.4865
G1 X162.049 Y108.618 E19.57405
G1 X162.047 Y111.277 E19.66249
G1 X162.12 Y113.936 E19.75096
G1 X162.271 Y116.613 E19.84014
G1 X162.495 Y119.273 E19.92892
G1 X162.789 Y121.881 E20.01622
G1 X163.168 Y124.554 E20.10601
G1 X163.406 Y125.994 E20.15455
G1 X163.481 Y126.738 E20.17942
G1 X163.495 Y127.096 E20.19134
G1 X163.5 Y127.33 E20.19912
G1 X163.5 Y159.338 E21.26372
G1 X163.491 Y160.065 E21.2879
G1 X163.442 Y160.756 E21.31094
G1 X163.314 Y161.437 E21.33398
G1 X163.109 Y162.098 E21.357
G1 X162.829 Y162.731 E21.38002
G1 X162.477 Y163.328 E21.40307
G1 X162.06 Y163.881 E21.42611
G1 X161.581 Y164.381 E21.44914
G1 X161.048 Y164.823 E21.47217
G1 X160.467 Y165.201 E21.49522
G1 X159.847 Y165.509 E21.51825
G1 X159.196 Y165.744 E21.54127
G1 X158.521 Y165.902 E21.56433
G1 X157.659 Y165.989 E21.59314
G1 X157.338 Y165.998 E21.60382
G1 X157.17 Y166 E21.60941
G1 X127.707 Y166 E22.58936
G1 X127.621 Y165.999 E22.59222
G1 X126.924 Y165.989 E22.6154
G1 X126.069 Y165.916 E22.64394
G1 X124.643 Y165.69 E22.69196
G1 X121.944 Y165.304 E22.78265
G1 X119.332 Y165.006 E22.87008
G1 X116.662 Y164.776 E22.95922
G1 X114.013 Y164.625 E23.04747
G1 X111.379 Y164.549 E23.13511
G1 X108.714 Y164.547 E23.22375
G1 X106.053 Y164.62 E23.31229
G1 X103.387 Y164.771 E23.4011
G1 X100.727 Y164.995 E23.48989
G1 X98.119 Y165.289 E23.57718
G1 X95.446 Y165.668 E23.66697
G1 X94.006 Y165.906 E23.71552
G1 X93.262 Y165.981 E23.74039
G1 X92.904 Y165.995 E23.7523
G1 X92.67 Y166 E23.76009
G1 X63.13 Y166 E24.74259
G1 X62.432 Y165.991 E24.76581
G1 X61.741 Y165.942 E24.78885
G1 X61.06 Y165.813 E24.8119
G1 X60.399 Y165.608 E24.83492
G1 X59.766 Y165.327 E24.85796
G1 X59.169 Y164.976 E24.88099
G1 X58.617 Y164.558 E24.90402
G1 X58.117 Y164.079 E24.92705
G1 X57.675 Y163.545 E24.95011
G1 X57.298 Y162.965 E24.97311
G1 X56.99 Y162.344 E24.99617
G1 X56.755 Y161.693 E25.01919
G1 X56.598 Y161.018 E25.04224
G1 X56.511 Y160.153 E25.07115
G1 X56.502 Y159.82 E25.08223
G1 X56.5 Y159.658 E25.08762
G1 X56.5 Y127.707 E26.15032
G1 X56.501 Y127.621 E26.15318
G1 X56.511 Y126.924 E26.17636
G1 X56.584 Y126.069 E26.2049
G1 X56.81 Y124.643 E26.25292
G1 X57.196 Y121.944 E26.34361
G1 X57.494 Y119.332 E26.43104
G1 X57.724 Y116.662 E26.52018
G1 X57.875 Y114.013 E26.60843
G1 X57.951 Y111.378 E26.6961
G1 X57.953 Y108.712 E26.78478
G1 X57.88 Y106.053 E26.87325
G1 X57.729 Y103.386 E26.96209
G1 X57.505 Y100.727 E27.05085
G1 X57.211 Y98.118 E27.13817
G1 X56.83 Y95.431 E27.22844
G1 X56.59 Y93.977 E27.27745
G1 X56.513 Y93.182 E27.30402
G1 X56.503 Y92.851 E27.31503
G1 X56.5 Y92.67 E27.32105
G1 X56.5 Y60.674 E28.38524
G1 X56.501 Y60.593 E28.38794
G1 X56.51 Y59.928 E28.41006
G1 X56.559 Y59.237 E28.4331
G1 X56.687 Y58.557 E28.45611
G1 X56.894 Y57.895 E28.47918
G1 X57.175 Y57.262 E28.50222
G1 X57.527 Y56.666 E28.52524
G1 X57.945 Y56.114 E28.54827
G1 X58.424 Y55.614 E28.5713
G0 F3600 X58.814 Y55.801
G1 F1800 X59.343 Y55.39 E28.59358
G1 X59.916 Y55.045 E28.61582
G1 X60.527 Y54.772 E28.63808
G1 X61.165 Y54.573 E28.66031
G1 X61.823 Y54.451 E28.68257
G1 X62.352 Y54.411 E28.70021
G1 X62.673 Y54.402 E28.71089
G1 X62.83 Y54.4 E28.71612
G1 X92.293 Y54.4 E29.69606
G1 X92.373 Y54.401 E29.69872
G1 X93.071 Y54.411 E29.72194
G1 X93.87 Y54.479 E29.74861
G1 X95.313 Y54.708 E29.7972
G1 X97.99 Y55.091 E29.88715
G1 X100.659 Y55.396 E29.9765
G1 X103.277 Y55.62 E30.06389
G1 X105.955 Y55.773 E30.15311
G1 X108.644 Y55.851 E30.24258
G1 X111.297 Y55.853 E30.33082
G1 X113.979 Y55.779 E30.42006
G1 X116.636 Y55.629 E30.50857
G1 X119.28 Y55.406 E30.59682
G1 X121.945 Y55.105 E30.68602
G1 X124.638 Y54.724 E30.77649
G1 X126.06 Y54.489 E30.82442
G1 X126.753 Y54.418 E30.84759
G1 X127.111 Y54.404 E30.85951
G1 X127.33 Y54.4 E30.86679
G1 X156.865 Y54.4 E31.84913
G1 X157.563 Y54.409 E31.87235
G1 X158.23 Y54.458 E31.89459
G1 X158.887 Y54.586 E31.91686
G1 X159.524 Y54.791 E31.93911
G1 X160.132 Y55.071 E31.96138
G1 X160.702 Y55.421 E31.98362
G1 X161.226 Y55.837 E32.00588
G1 X161.697 Y56.312 E32.02813
G1 X162.108 Y56.84 E32.05038
G1 X162.453 Y57.413 E32.07263
G1 X162.727 Y58.023 E32.09487
G1 X162.927 Y58.662 E32.11714
G1 X163.048 Y59.32 E32.13939
G1 X163.089 Y59.852 E32.15714
G1 X163.098 Y60.173 E32.16782
G1 X163.1 Y60.33 E32.17304
G1 X163.1 Y92.274 E33.2355
G1 X163.099 Y92.352 E33.2381
G1 X163.089 Y93.068 E33.26191
G1 X163.021 Y93.868 E33.28862
G1 X162.793 Y95.303 E33.33694
G1 X162.409 Y97.99 E33.42722
G1 X162.104 Y100.659 E33.51657
G1 X161.88 Y103.277 E33.60396
G1 X161.727 Y105.949 E33.69298
G1 X161.649 Y108.644 E33.78265
G1 X161.647 Y111.289 E33.87063
G1 X161.72 Y113.958 E33.95943
G1 X161.87 Y116.623 E34.04821
G1 X162.094 Y119.28 E34.1369
G1 X162.394 Y121.938 E34.22586
G1 X162.776 Y124.638 E34.31656
G1 X163.011 Y126.06 E34.3645
G1 X163.082 Y126.753 E34.38767
G1 X163.096 Y127.111 E34.39958
G1 X163.1 Y127.33 E34.40687
G1 X163.1 Y159.333 E35.47129
G1 X163.091 Y160.06 E35.49547
G1 X163.042 Y160.728 E35.51775
G1 X162.915 Y161.384 E35.53998
G1 X162.71 Y162.021 E35.56223
G1 X162.431 Y162.629 E35.58448
G1 X162.081 Y163.199 E35.60673
G1 X161.665 Y163.724 E35.62901
G1 X161.19 Y164.195 E35.65126
G1 X160.663 Y164.606 E35.67348
G1 X160.09 Y164.952 E35.69575
G1 X159.48 Y165.226 E35.71799
G1 X158.841 Y165.426 E35.74026
G1 X158.183 Y165.548 E35.76252
G1 X157.648 Y165.589 E35.78036
G1 X157.327 Y165.598 E35.79104
G1 X157.17 Y165.6 E35.79627
G1 X127.707 Y165.6 E36.77621
G1 X127.627 Y165.599 E36.77887
G1 X126.93 Y165.589 E36.80206
G1 X126.132 Y165.521 E36.82869
G1 X124.697 Y165.293 E36.87702
G1 X122.01 Y164.909 E36.9673
G1 X119.341 Y164.604 E37.05665
G1 X116.723 Y164.38 E37.14404
G1 X114.045 Y164.227 E37.23326
G1 X111.356 Y164.149 E37.32273
G1 X108.703 Y164.147 E37.41097
G1 X106.021 Y164.221 E37.50021
G1 X103.364 Y164.371 E37.58872
G1 X100.72 Y164.594 E37.67697
G1 X98.055 Y164.895 E37.76617
G1 X95.362 Y165.276 E37.85664
G1 X93.94 Y165.511 E37.90457
G1 X93.247 Y165.582 E37.92774
G1 X92.889 Y165.596 E37.93966
G1 X92.67 Y165.6 E37.94694
G1 X63.135 Y165.6 E38.92928
G1 X62.437 Y165.591 E38.9525
G1 X61.77 Y165.542 E38.97474
G1 X61.113 Y165.414 E38.99701
G1 X60.476 Y165.209 E39.01926
G1 X59.868 Y164.929 E39.04153
G1 X59.298 Y164.579 E39.06377
G1 X58.774 Y164.163 E39.08603
G1 X58.303 Y163.688 E39.10828
G1 X57.892 Y163.16 E39.13053
G1 X57.547 Y162.587 E39.15278
G1 X57.273 Y161.977 E39.17502
G1 X57.073 Y161.338 E39.19729
G1 X56.952 Y160.68 E39.21954
G1 X56.911 Y160.142 E39.23749
G1 X56.902 Y159.809 E39.24857
G1 X56.9 Y159.658 E39.25359
G1 X56.9 Y127.707 E40.31628
G1 X56.901 Y127.627 E40.31894
G1 X56.911 Y126.93 E40.34213
G1 X56.979 Y126.132 E40.36877
G1 X57.207 Y124.697 E40.41709
G1 X57.591 Y122.01 E40.50737
G1 X57.896 Y119.341 E40.59672
G1 X58.121 Y116.713 E40.68445
G1 X58.273 Y114.045 E40.77333
G1 X58.351 Y111.356 E40.8628
G1 X58.353 Y108.701 E40.95111
G1 X58.279 Y106.021 E41.04028
G1 X58.129 Y103.363 E41.12883
G1 X57.906 Y100.716 E41.21718
G1 X57.605 Y98.054 E41.30628
G1 X57.222 Y95.348 E41.39718
G1 X56.985 Y93.912 E41.44559
G1 X56.913 Y93.17 E41.47038
G1 X56.903 Y92.839 E41.4814
G1 X56.9 Y92.67 E41.48702
G1 X56.9 Y60.674 E42.55121
G1 X56.901 Y60.598 E42.55374
G1 X56.91 Y59.933 E42.57586
G1 X56.959 Y59.266 E42.5981
G1 X57.087 Y58.609 E42.62036
G1 X57.292 Y57.973 E42.64259
G1 X57.572 Y57.365 E42.66485
G1 X57.923 Y56.795 E42.68712
G1 X58.339 Y56.271 E42.70937
G1 X58.814 Y55.801 E42.7316
G0 F3600 X58.732 Y56.435
G1 F1800 X59.203 Y55.995 E42.75303
G1 X59.726 Y55.617 E42.7745
G1 X60.29 Y55.306 E42.79592
G1 X60.889 Y55.068 E42.81736
G1 X61.513 Y54.905 E42.83881
G1 X62.363 Y54.811 E42.86725
G1 X62.684 Y54.802 E42.87793
G1 X62.83 Y54.8 E42.88279
G1 X92.293 Y54.8 E43.86273
G1 X92.367 Y54.801 E43.86519
G1 X93.065 Y54.811 E43.88841
G1 X93.807 Y54.874 E43.91318
G1 X95.259 Y55.105 E43.96208
G1 X97.955 Y55.49 E44.05266
G1 X100.581 Y55.79 E44.14057
G1 X103.256 Y56.02 E44.22987
G1 X105.955 Y56.173 E44.31978
G1 X108.633 Y56.251 E44.40889
G1 X111.307 Y56.253 E44.49783
G1 X113.979 Y56.179 E44.58673
G1 X116.656 Y56.028 E44.67591
G1 X119.358 Y55.8 E44.7661
G1 X121.98 Y55.505 E44.85386
G1 X124.666 Y55.124 E44.94409
G1 X126.125 Y54.883 E44.99327
G1 X126.769 Y54.818 E45.0148
G1 X127.127 Y54.804 E45.02672
G1 X127.33 Y54.8 E45.03347
G1 X156.86 Y54.8 E46.01564
G1 X157.558 Y54.809 E46.03886
G1 X158.201 Y54.858 E46.06031
G1 X158.833 Y54.985 E46.08175
G1 X159.444 Y55.19 E46.10318
G1 X160.025 Y55.468 E46.1246
G1 X160.568 Y55.817 E46.14607
G1 X161.063 Y56.23 E46.16752
G1 X161.503 Y56.701 E46.18895
G1 X161.882 Y57.223 E46.21041
G1 X162.193 Y57.787 E46.23183
G1 X162.431 Y58.386 E46.25327
G1 X162.594 Y59.01 E46.27472
G1 X162.689 Y59.863 E46.30326
