;FLAVOR:Marlin
;TIME:823
;Filament used: 1.06008m
;Layer height: 0.4
;MINX:89.1
;MINY:81.604
;MINZ:0.2
;MAXX:118.9
;MAXY:142.396
;MAXZ:9
;Generated with Cura_SteamEngine 4.1.0
M140 S60
M105
M190 S60
M104 S200
M105
M109 S200
M82 ;absolute extrusion mode
; Ender 3 Custom Start G-code
G28 ; Home all axes
G92 E0 ; Reset Extruder
G1 Z2.0 F3000 ; Move Z Axis up little to prevent scratching of Heat Bed
G1 X0.1 Y20 Z0.3 F5000.0 ; Move to start position
G1 X0.1 Y200.0 Z0.3 F1500.0 E15 ; Draw the first line
G1 X0.4 Y200.0 Z0.3 F5000.0 ; Move to side a little
G1 X0.4 Y20 Z0.3 F1500.0 E30 ; Draw the second line
G92 E0 ; Reset Extruder
G1 Z2.0 F3000 ; Move Z Axis up little to prevent scratching of Heat Bed
; End of custom start GCode
G92 E0
G92 E0
G1 F2400 E-5
;LAYER_COUNT:23
;LAYER:0
M107
M204 S500
M205 X10 Y10
G0 F3600 X90.948 Y88.132 Z0.2
;TYPE:SKIRT
G1 F2400 E0
G1 F1800 X91.55 Y87.537 E0.02815
G1 X91.804 Y87.317 E0.03933
G1 X92.37 Y86.88 E0.06311
G1 X92.981 Y86.509 E0.08689
G1 X93.701 Y86.18 E0.11322
G1 X94.045 Y86.048 E0.12547
G1 X94.585 Y85.868 E0.1444
G1 X95.6 Y85.579 E0.1795
G1 X95.702 Y85.551 E0.18302
G1 X96.156 Y85.43 E0.19865
G1 X98.695 Y84.673 E0.28677
G1 X101.194 Y83.851 E0.37427
G1 X104.269 Y82.73 E0.48313
G1 X106.038 Y82.052 E0.54614
G1 X106.719 Y81.834 E0.56992
G1 X107.42 Y81.693 E0.5937
G1 X108.193 Y81.629 E0.6195
G1 X109.001 Y81.612 E0.64638
G1 X109.109 Y81.611 E0.64997
G1 X110.798 Y81.604 E0.70615
G1 X110.889 Y81.604 E0.70918
G1 X111.592 Y81.611 E0.73256
G1 X112.305 Y81.658 E0.75632
G1 X112.825 Y81.744 E0.77386
G1 X113.139 Y81.809 E0.78452
G1 X113.831 Y81.993 E0.80834
G1 X114.497 Y82.253 E0.83212
G1 X115.137 Y82.59 E0.85617
G1 X115.445 Y82.775 E0.86812
G1 X116.037 Y83.177 E0.89192
G1 X116.58 Y83.642 E0.9157
G1 X117.123 Y84.232 E0.94237
G1 X117.332 Y84.49 E0.95341
G1 X117.75 Y85.071 E0.97722
G1 X118.102 Y85.694 E1.00102
G1 X118.402 Y86.411 E1.02687
G1 X118.522 Y86.755 E1.03899
G1 X118.719 Y87.442 E1.06276
G1 X118.839 Y88.148 E1.08658
G1 X118.878 Y88.769 E1.10727
G1 X118.889 Y89.52 E1.13225
G1 X118.89 Y89.612 E1.13531
G1 X118.9 Y130.269 E2.48757
G1 X118.899 Y130.361 E2.49063
G1 X118.89 Y130.999 E2.51185
G1 X118.839 Y131.725 E2.53606
G1 X118.799 Y132.036 E2.54649
G1 X118.668 Y132.74 E2.5703
G1 X118.46 Y133.424 E2.59408
G1 X118.24 Y133.95 E2.61305
G1 X118.049 Y134.355 E2.62794
G1 X117.708 Y134.984 E2.65174
G1 X117.299 Y135.571 E2.67553
G1 X116.827 Y136.108 E2.69931
G1 X116.45 Y136.463 E2.71654
G1 X116.196 Y136.683 E2.72771
G1 X115.63 Y137.12 E2.7515
G1 X115.019 Y137.491 E2.77527
G1 X114.297 Y137.821 E2.80167
G1 X113.95 Y137.954 E2.81403
G1 X113.411 Y138.134 E2.83293
G1 X112.399 Y138.422 E2.86793
G1 X112.298 Y138.449 E2.87141
G1 X111.844 Y138.57 E2.88703
G1 X109.305 Y139.327 E2.97515
G1 X106.806 Y140.149 E3.06265
G1 X103.731 Y141.27 E3.17151
G1 X101.962 Y141.948 E3.23452
G1 X101.281 Y142.166 E3.2583
G1 X100.58 Y142.307 E3.28209
G1 X99.807 Y142.371 E3.30789
G1 X98.999 Y142.388 E3.33477
G1 X98.891 Y142.389 E3.33836
G1 X97.202 Y142.396 E3.39453
G1 X97.111 Y142.396 E3.39756
G1 X96.408 Y142.389 E3.42094
G1 X95.695 Y142.342 E3.44471
G1 X95.175 Y142.256 E3.46224
G1 X94.861 Y142.191 E3.47291
G1 X94.169 Y142.007 E3.49672
G1 X93.503 Y141.747 E3.5205
G1 X92.857 Y141.407 E3.54478
G1 X92.548 Y141.221 E3.55678
G1 X91.957 Y140.819 E3.58055
G1 X91.415 Y140.353 E3.60432
G1 X90.874 Y139.764 E3.63092
G1 X90.666 Y139.507 E3.64192
G1 X90.248 Y138.927 E3.6657
G1 X89.897 Y138.304 E3.68948
G1 X89.592 Y137.572 E3.71586
G1 X89.471 Y137.222 E3.72817
G1 X89.276 Y136.534 E3.75196
G1 X89.158 Y135.829 E3.77573
G1 X89.122 Y135.298 E3.79344
G1 X89.107 Y134.723 E3.81257
G1 X89.105 Y134.594 E3.81686
G1 X89.1 Y133.754 E3.8448
G1 X89.1 Y93.77 E5.17467
G1 X89.101 Y93.678 E5.17773
G1 X89.111 Y92.981 E5.20091
G1 X89.162 Y92.259 E5.22499
G1 X89.196 Y91.994 E5.23387
G1 X89.231 Y91.756 E5.24188
G1 X89.249 Y91.648 E5.24552
G1 X89.406 Y90.95 E5.26931
G1 X89.64 Y90.274 E5.29311
G1 X89.949 Y89.626 E5.31698
G1 X90.127 Y89.301 E5.32931
G1 X90.505 Y88.694 E5.35309
G1 X90.948 Y88.132 E5.37689
G0 F3600 X91.277 Y88.365
G1 F1800 X91.812 Y87.84 E5.40182
G1 X92.066 Y87.62 E5.413
G1 X92.615 Y87.197 E5.43605
G1 X93.208 Y86.841 E5.45905
G1 X93.844 Y86.553 E5.48228
G1 X94.188 Y86.421 E5.49453
G1 X94.695 Y86.252 E5.51231
G1 X95.71 Y85.963 E5.54741
G1 X95.805 Y85.937 E5.55068
G1 X96.268 Y85.813 E5.56662
G1 X98.829 Y85.05 E5.6555
G1 X101.329 Y84.227 E5.74304
G1 X104.373 Y83.118 E5.8508
G1 X106.181 Y82.425 E5.9152
G1 X106.841 Y82.215 E5.93823
G1 X107.52 Y82.083 E5.96124
G1 X108.202 Y82.029 E5.984
G1 X109.01 Y82.012 E6.01088
G1 X109.111 Y82.011 E6.01423
G1 X110.8 Y82.004 E6.07041
G1 X110.885 Y82.004 E6.07324
G1 X111.588 Y82.011 E6.09662
G1 X112.279 Y82.058 E6.11966
G1 X112.744 Y82.136 E6.13534
G1 X113.058 Y82.201 E6.146
G1 X113.727 Y82.38 E6.16904
G1 X114.371 Y82.635 E6.19208
G1 X114.931 Y82.933 E6.21317
G1 X115.239 Y83.118 E6.22512
G1 X115.812 Y83.508 E6.24818
G1 X116.335 Y83.961 E6.27119
G1 X116.812 Y84.484 E6.29473
G1 X117.021 Y84.742 E6.30578
G1 X117.425 Y85.305 E6.32883
G1 X117.762 Y85.91 E6.35186
G1 X118.024 Y86.543 E6.37465
G1 X118.144 Y86.887 E6.38676
G1 X118.334 Y87.553 E6.4098
G1 X118.446 Y88.236 E6.43282
G1 X118.478 Y88.775 E6.45078
G1 X118.489 Y89.526 E6.47576
G1 X118.49 Y89.613 E6.47865
G1 X118.5 Y130.27 E7.83091
G1 X118.499 Y130.356 E7.83377
G1 X118.49 Y130.994 E7.85499
G1 X118.442 Y131.674 E7.87766
G1 X118.402 Y131.985 E7.88809
G1 X118.274 Y132.666 E7.91114
G1 X118.069 Y133.327 E7.93416
G1 X117.878 Y133.779 E7.95048
G1 X117.687 Y134.184 E7.96537
G1 X117.356 Y134.793 E7.98843
G1 X116.957 Y135.359 E8.01146
G1 X116.495 Y135.875 E8.0345
G1 X116.188 Y136.16 E8.04843
G1 X115.934 Y136.38 E8.0596
G1 X115.385 Y136.803 E8.08266
G1 X114.792 Y137.159 E8.10566
G1 X114.153 Y137.448 E8.12899
G1 X113.806 Y137.581 E8.14135
G1 X113.301 Y137.749 E8.15905
G1 X112.289 Y138.037 E8.19404
G1 X112.195 Y138.063 E8.19729
G1 X111.732 Y138.187 E8.21323
G1 X109.171 Y138.95 E8.30211
G1 X106.671 Y139.773 E8.38965
G1 X103.635 Y140.879 E8.49712
G1 X101.819 Y141.575 E8.5618
G1 X101.159 Y141.785 E8.58484
G1 X100.48 Y141.917 E8.60784
G1 X99.798 Y141.971 E8.6306
G1 X98.99 Y141.988 E8.65748
G1 X98.889 Y141.989 E8.66084
G1 X97.2 Y141.996 E8.71702
G1 X97.115 Y141.996 E8.71984
G1 X96.412 Y141.989 E8.74323
G1 X95.721 Y141.942 E8.76626
G1 X95.256 Y141.864 E8.78194
G1 X94.942 Y141.799 E8.79261
G1 X94.273 Y141.62 E8.81564
G1 X93.629 Y141.365 E8.83868
G1 X93.064 Y141.065 E8.85996
G1 X92.755 Y140.879 E8.87195
G1 X92.183 Y140.488 E8.895
G1 X91.66 Y140.034 E8.91803
G1 X91.185 Y139.513 E8.94148
G1 X90.977 Y139.256 E8.95248
G1 X90.573 Y138.693 E8.97553
G1 X90.237 Y138.088 E8.99854
G1 X89.97 Y137.441 E9.02182
G1 X89.849 Y137.091 E9.03414
G1 X89.661 Y136.425 E9.05716
G1 X89.551 Y135.741 E9.0802
G1 X89.522 Y135.287 E9.09533
G1 X89.507 Y134.712 E9.11446
G1 X89.505 Y134.592 E9.11845
G1 X89.5 Y133.752 E9.14639
G1 X89.5 Y93.77 E10.4762
G1 X89.501 Y93.684 E10.47906
G1 X89.511 Y92.987 E10.50224
G1 X89.559 Y92.309 E10.52485
G1 X89.593 Y92.044 E10.53374
G1 X89.626 Y91.822 E10.5412
G1 X89.644 Y91.714 E10.54484
G1 X89.797 Y91.038 E10.5679
G1 X90.027 Y90.385 E10.59092
G1 X90.3 Y89.818 E10.61185
G1 X90.478 Y89.493 E10.62418
G1 X90.845 Y88.906 E10.6472
G1 X91.277 Y88.365 E10.67023
G0 F3600 X91.605 Y88.598
G1 F1800 X92.074 Y88.142 E10.69199
G1 X92.328 Y87.922 E10.70316
G1 X92.859 Y87.515 E10.72541
G1 X93.434 Y87.174 E10.74765
G1 X93.988 Y86.927 E10.76782
G1 X94.332 Y86.795 E10.78008
G1 X94.804 Y86.637 E10.79663
G1 X95.819 Y86.348 E10.83173
G1 X95.908 Y86.324 E10.8348
G1 X96.348 Y86.207 E10.84994
G1 X98.963 Y85.427 E10.94071
G1 X101.465 Y84.604 E11.02831
G1 X104.522 Y83.49 E11.13653
G1 X106.324 Y82.799 E11.20072
G1 X106.962 Y82.597 E11.22297
G1 X107.619 Y82.473 E11.24521
G1 X108.21 Y82.429 E11.26492
G1 X109.018 Y82.412 E11.2918
G1 X109.113 Y82.411 E11.29496
G1 X110.802 Y82.404 E11.35114
G1 X110.881 Y82.404 E11.35377
G1 X111.584 Y82.411 E11.37715
G1 X112.251 Y82.458 E11.39939
G1 X112.663 Y82.527 E11.41328
G1 X112.977 Y82.592 E11.42395
G1 X113.623 Y82.767 E11.44621
G1 X114.243 Y83.017 E11.46844
G1 X114.725 Y83.275 E11.48663
G1 X115.033 Y83.46 E11.49858
G1 X115.585 Y83.839 E11.52085
G1 X116.088 Y84.28 E11.5431
G1 X116.501 Y84.736 E11.56356
G1 X116.71 Y84.994 E11.5746
G1 X117.1 Y85.538 E11.59687
G1 X117.421 Y86.125 E11.61912
G1 X117.647 Y86.675 E11.6389
G1 X117.767 Y87.019 E11.65101
G1 X117.949 Y87.662 E11.67324
G1 X118.053 Y88.323 E11.6955
G1 X118.078 Y88.781 E11.71075
G1 X118.089 Y89.532 E11.73573
G1 X118.09 Y89.613 E11.73843
G1 X118.1 Y130.27 E13.09068
G1 X118.099 Y130.35 E13.09334
G1 X118.09 Y130.988 E13.11457
G1 X118.045 Y131.623 E13.13574
G1 X118.005 Y131.934 E13.14617
G1 X117.88 Y132.592 E13.16845
G1 X117.678 Y133.229 E13.19067
G1 X117.516 Y133.609 E13.20441
G1 X117.325 Y134.014 E13.2193
G1 X117.004 Y134.601 E13.24156
G1 X116.615 Y135.145 E13.2638
G1 X115.926 Y135.858 E13.29678
G1 X115.672 Y136.078 E13.30795
G1 X115.141 Y136.485 E13.33021
G1 X114.566 Y136.826 E13.35244
G1 X114.01 Y137.074 E13.37269
G1 X113.663 Y137.207 E13.38505
G1 X113.192 Y137.364 E13.40156
G1 X112.18 Y137.652 E13.43656
G1 X112.092 Y137.676 E13.43959
G1 X111.652 Y137.793 E13.45474
G1 X109.037 Y138.573 E13.5455
G1 X106.535 Y139.396 E13.6331
G1 X103.478 Y140.51 E13.74132
G1 X101.676 Y141.201 E13.80551
G1 X101.038 Y141.403 E13.82777
G1 X100.381 Y141.527 E13.85
G1 X99.79 Y141.571 E13.86972
G1 X98.982 Y141.588 E13.8966
G1 X98.887 Y141.589 E13.89976
G1 X97.198 Y141.596 E13.95593
G1 X97.119 Y141.596 E13.95856
G1 X96.416 Y141.589 E13.98194
G1 X95.749 Y141.542 E14.00418
G1 X95.337 Y141.473 E14.01808
G1 X95.023 Y141.408 E14.02874
G1 X94.377 Y141.233 E14.051
G1 X93.757 Y140.983 E14.07324
G1 X93.27 Y140.722 E14.09161
G1 X92.961 Y140.536 E14.10361
G1 X92.409 Y140.157 E14.12588
G1 X91.907 Y139.715 E14.14813
G1 X91.496 Y139.261 E14.16849
G1 X91.288 Y139.004 E14.17949
G1 X90.899 Y138.46 E14.20173
G1 X90.578 Y137.873 E14.22399
G1 X90.348 Y137.311 E14.24418
G1 X90.227 Y136.961 E14.2565
G1 X90.047 Y136.317 E14.27874
G1 X89.945 Y135.655 E14.30102
G1 X89.922 Y135.277 E14.31362
G1 X89.907 Y134.702 E14.33275
G1 X89.905 Y134.589 E14.33651
G1 X89.9 Y133.749 E14.36444
G1 X89.9 Y93.77 E15.69415
G1 X89.901 Y93.69 E15.69681
G1 X89.911 Y92.993 E15.72
G1 X89.956 Y92.36 E15.7411
G1 X89.99 Y92.095 E15.74999
G1 X90.02 Y91.887 E15.75698
G1 X90.038 Y91.779 E15.76062
G1 X90.187 Y91.127 E15.78287
G1 X90.413 Y90.497 E15.80513
G1 X90.65 Y90.01 E15.82314
G1 X90.828 Y89.685 E15.83547
G1 X91.184 Y89.118 E15.85773
G1 X91.605 Y88.598 E15.87999
G0 F3600 X91.932 Y88.834
G1 F1800 X92.336 Y88.444 E15.89866
G1 X92.59 Y88.224 E15.90984
G1 X93.102 Y87.833 E15.93127
G1 X93.659 Y87.509 E15.9527
G1 X94.131 Y87.3 E15.96987
G1 X94.475 Y87.168 E15.98212
G1 X94.914 Y87.022 E15.99751
G1 X95.929 Y86.733 E16.03261
G1 X96.011 Y86.71 E16.03544
G1 X96.502 Y86.579 E16.05235
G1 X99.023 Y85.827 E16.13984
G1 X101.6 Y84.98 E16.23007
G1 X104.675 Y83.859 E16.33893
G1 X106.467 Y83.172 E16.40276
G1 X107.082 Y82.979 E16.4242
G1 X107.717 Y82.864 E16.44566
G1 X108.219 Y82.829 E16.4624
G1 X109.027 Y82.812 E16.48928
G1 X109.114 Y82.811 E16.49217
G1 X110.803 Y82.804 E16.54835
G1 X110.877 Y82.804 E16.55081
G1 X111.58 Y82.811 E16.57419
G1 X112.223 Y82.858 E16.59564
G1 X112.582 Y82.919 E16.60775
G1 X112.896 Y82.984 E16.61841
G1 X113.518 Y83.154 E16.63986
G1 X114.114 Y83.399 E16.66129
G1 X114.52 Y83.618 E16.67663
G1 X114.828 Y83.803 E16.68858
G1 X115.359 Y84.169 E16.71003
G1 X115.84 Y84.597 E16.73145
G1 X116.191 Y84.988 E16.74893
G1 X116.4 Y85.246 E16.75997
G1 X116.774 Y85.771 E16.78141
G1 X117.08 Y86.338 E16.80284
G1 X117.269 Y86.806 E16.81962
G1 X117.389 Y87.15 E16.83174
G1 X117.563 Y87.771 E16.85319
G1 X117.659 Y88.408 E16.87462
G1 X117.678 Y88.787 E16.88724
G1 X117.689 Y89.538 E16.91222
G1 X117.69 Y89.613 E16.91472
G1 X117.7 Y130.27 E18.26697
G1 X117.699 Y130.344 E18.26943
G1 X117.69 Y130.982 E18.29066
G1 X117.649 Y131.572 E18.31033
G1 X117.609 Y131.883 E18.32076
G1 X117.487 Y132.516 E18.3422
G1 X117.288 Y133.13 E18.36367
G1 X117.154 Y133.438 E18.37484
G1 X116.963 Y133.843 E18.38973
G1 X116.653 Y134.408 E18.41116
G1 X116.275 Y134.93 E18.4326
G1 X115.664 Y135.556 E18.4617
G1 X115.41 Y135.776 E18.47287
G1 X114.898 Y136.167 E18.4943
G1 X114.341 Y136.491 E18.51573
G1 X113.867 Y136.701 E18.53297
G1 X113.52 Y136.834 E18.54533
G1 X113.082 Y136.979 E18.56068
G1 X112.07 Y137.267 E18.59568
G1 X111.989 Y137.29 E18.59848
G1 X111.498 Y137.421 E18.61538
G1 X108.977 Y138.173 E18.70288
G1 X106.4 Y139.02 E18.7931
G1 X103.325 Y140.141 E18.90196
G1 X101.533 Y140.828 E18.96579
G1 X100.918 Y141.021 E18.98723
G1 X100.283 Y141.136 E19.00869
G1 X99.781 Y141.171 E19.02543
G1 X98.973 Y141.188 E19.05231
G1 X98.886 Y141.189 E19.0552
G1 X97.197 Y141.196 E19.11138
G1 X97.123 Y141.196 E19.11384
G1 X96.42 Y141.189 E19.13723
G1 X95.777 Y141.142 E19.15867
G1 X95.418 Y141.081 E19.17078
G1 X95.104 Y141.016 E19.18145
G1 X94.482 Y140.846 E19.20289
G1 X93.886 Y140.601 E19.22432
G1 X93.476 Y140.379 E19.23983
G1 X93.167 Y140.193 E19.25183
G1 X92.637 Y139.827 E19.27325
G1 X92.155 Y139.398 E19.29471
G1 X91.807 Y139.009 E19.31207
G1 X91.599 Y138.752 E19.32307
G1 X91.225 Y138.227 E19.34451
G1 X90.919 Y137.66 E19.36594
G1 X90.726 Y137.18 E19.38314
G1 X90.605 Y136.83 E19.39546
G1 X90.433 Y136.209 E19.41689
G1 X90.322 Y135.267 E19.44844
G1 X90.307 Y134.692 E19.46757
G1 X90.305 Y134.587 E19.47107
G1 X90.3 Y133.747 E19.499
G1 X90.3 Y93.77 E20.82864
G1 X90.301 Y93.695 E20.83114
G1 X90.311 Y92.998 E20.85432
G1 X90.352 Y92.411 E20.8739
G1 X90.386 Y92.146 E20.88278
G1 X90.415 Y91.953 E20.88927
G1 X90.433 Y91.845 E20.89291
G1 X90.578 Y91.217 E20.91435
G1 X90.8 Y90.612 E20.93579
G1 X91.001 Y90.202 E20.95097
G1 X91.179 Y89.877 E20.9633
G1 X91.523 Y89.332 E20.98473
G1 X91.932 Y88.834 E21.00617
G1 F2400 E16.00617
;MESH:brackets.stl(1)
G0 F3600 X95.998 Y91.428
G0 X96.436 Y92.634
G0 X99.695 Y92.784
G0 X99.761 Y92.71
;TYPE:WALL-INNER
G1 F2400 E21.00617
G1 F1800 X99.846 Y92.818 E21.01074
G1 X99.89 Y92.953 E21.01546
G1 X99.9 Y134.892 E22.41036
G1 X99.864 Y135.141 E22.41873
G1 X99.799 Y135.252 E22.423
G1 X99.696 Y135.339 E22.42749
G1 X99.567 Y135.385 E22.43204
G1 X96.528 Y135.399 E22.53312
G1 X96.352 Y135.361 E22.53911
G1 X96.239 Y135.29 E22.54355
G1 X96.156 Y135.184 E22.54803
G1 X96.109 Y135.041 E22.55303
G1 X96.1 Y134.012 E22.58726
G1 X96.1 Y93.108 E23.94773
G1 X96.136 Y92.859 E23.9561
G1 X96.201 Y92.748 E23.96038
G1 X96.304 Y92.661 E23.96486
G1 X96.433 Y92.615 E23.96942
G1 X99.472 Y92.601 E24.0705
G1 X99.648 Y92.639 E24.07648
G1 X99.761 Y92.71 E24.08092
G0 F3600 X100.032 Y92.407
;TYPE:WALL-OUTER
G1 F1800 X100.204 Y92.627 E24.09021
G1 X100.29 Y92.892 E24.09948
G1 X100.3 Y134.922 E25.4974
G1 X100.249 Y135.273 E25.5092
G1 X100.11 Y135.513 E25.51842
G1 X99.898 Y135.691 E25.52763
G1 X99.637 Y135.785 E25.53686
G1 X96.488 Y135.799 E25.64159
G1 X96.197 Y135.737 E25.65149
G1 X95.968 Y135.593 E25.66049
G1 X95.796 Y135.373 E25.66978
G1 X95.71 Y135.107 E25.67907
G1 X95.7 Y134.012 E25.71549
G1 X95.7 Y93.078 E27.07697
G1 X95.751 Y92.727 E27.08876
G1 X95.89 Y92.487 E27.09799
G1 X96.102 Y92.309 E27.10719
G1 X96.363 Y92.215 E27.11642
G1 X99.512 Y92.201 E27.22116
G1 X99.803 Y92.263 E27.23105
G1 X100.032 Y92.407 E27.24005
G0 F3600 X100.155 Y92.564
G0 X99.497 Y93.005
;TYPE:SKIN
G1 F1800 X99.51 Y134.864 E28.63229
G1 X99.491 Y134.995 E28.63669
G1 X96.568 Y135.009 E28.73391
G1 X96.504 Y134.995 E28.73609
G1 X96.499 Y134.978 E28.73668
G1 X96.49 Y134.012 E28.76881
G1 X96.49 Y93.136 E30.12835
G1 X96.509 Y93.005 E30.13275
G1 X99.432 Y92.991 E30.22997
