;FLAVOR:Marlin
;TIME:3284
;Filament used: 8.67674m
;Layer height: 0.6
;MINX:33.1
;MINY:68.611
;MINZ:0.2
;MAXX:186.9
;MAXY:151.388
;MAXZ:12.8
;Generated with Cura_SteamEngine 4.1.0
M140 S60
M105
M190 S60
M104 S200
M105
M109 S200
M82 ;absolute extrusion mode
; Ender 3 Custom Start G-code
G28 ; Home all axes
G92 E0 ; Reset Extruder
G1 Z2.0 F3000 ; Move Z Axis up little to prevent scratching of Heat Bed
G1 X0.1 Y20 Z0.3 F5000.0 ; Move to start position
G1 X0.1 Y200.0 Z0.3 F1500.0 E15 ; Draw the first line
G1 X0.4 Y200.0 Z0.3 F5000.0 ; Move to side a little
G1 X0.4 Y20 Z0.3 F1500.0 E30 ; Draw the second line
G92 E0 ; Reset Extruder
G1 Z2.0 F3000 ; Move Z Axis up little to prevent scratching of Heat Bed
; End of custom start GCode
G92 E0
G92 E0
G1 F2400 E-5
;LAYER_COUNT:22
;LAYER:0
M107
M204 S500
M205 X10 Y10
G0 F3600 X36.788 Y69.227 Z0.2
;TYPE:SKIRT
G1 F2400 E0
G1 F1800 X37.452 Y68.96 E0.0238
G1 X38.141 Y68.768 E0.04759
G1 X38.847 Y68.654 E0.07138
G1 X39.33 Y68.623 E0.08748
G1 X39.651 Y68.614 E0.09816
G1 X39.83 Y68.611 E0.10411
G1 X58.638 Y68.611 E0.72967
G1 X58.729 Y68.612 E0.73269
G1 X59.435 Y68.622 E0.75618
G1 X59.803 Y68.637 E0.76843
G1 X59.956 Y68.648 E0.77353
G1 X60.665 Y68.74 E0.79731
G1 X61.36 Y68.909 E0.8211
G1 X62.032 Y69.155 E0.8449
G1 X62.621 Y69.446 E0.86675
G1 X63.338 Y69.847 E0.89407
G1 X63.411 Y69.889 E0.89688
G1 X64.367 Y70.44 E0.93358
G1 X66.697 Y71.698 E1.02165
G1 X69.057 Y72.888 E1.10955
G1 X71.439 Y74.006 E1.19707
G1 X73.901 Y75.076 E1.28636
G1 X76.314 Y76.046 E1.37286
G1 X78.848 Y76.982 E1.4627
G1 X81.32 Y77.816 E1.54948
G1 X83.856 Y78.592 E1.63768
G1 X86.439 Y79.305 E1.72681
G1 X89.007 Y79.936 E1.81476
G1 X91.575 Y80.488 E1.90212
G1 X94.19 Y80.974 E1.99059
G1 X96.773 Y81.38 E2.07755
G1 X99.41 Y81.718 E2.16598
G1 X102.067 Y81.982 E2.25479
G1 X104.701 Y82.169 E2.34261
G1 X107.343 Y82.281 E2.43057
G1 X109.991 Y82.32 E2.51865
G1 X112.627 Y82.283 E2.60633
G1 X115.276 Y82.171 E2.69452
G1 X117.907 Y81.985 E2.78224
G1 X120.568 Y81.721 E2.87118
G1 X123.162 Y81.39 E2.95816
G1 X125.784 Y80.978 E3.04644
G1 X128.402 Y80.493 E3.13499
G1 X130.962 Y79.942 E3.22209
G1 X133.557 Y79.307 E3.31094
G1 X136.112 Y78.604 E3.39908
G1 X138.641 Y77.83 E3.48705
G1 X141.149 Y76.985 E3.57507
G1 X143.633 Y76.069 E3.66313
G1 X146.101 Y75.079 E3.75157
G1 X148.515 Y74.029 E3.83913
G1 X150.894 Y72.914 E3.92651
G1 X153.309 Y71.698 E4.01644
G1 X155.591 Y70.467 E4.10268
G1 X157.312 Y69.484 E4.1686
G1 X157.952 Y69.165 E4.19239
G1 X158.624 Y68.919 E4.21619
G1 X159.319 Y68.749 E4.23999
G1 X160.357 Y68.643 E4.27469
G1 X161.347 Y68.623 E4.30762
G1 X161.472 Y68.622 E4.31178
G1 X179.812 Y68.611 E4.92177
G1 X179.911 Y68.612 E4.92507
G1 X180.586 Y68.622 E4.94752
G1 X181.299 Y68.672 E4.97129
G1 X182.003 Y68.802 E4.9951
G1 X182.687 Y69.01 E5.01888
G1 X183.344 Y69.292 E5.04266
G1 X183.966 Y69.646 E5.06646
G1 X184.544 Y70.068 E5.09027
G1 X185.071 Y70.551 E5.11404
G1 X185.541 Y71.09 E5.13783
G1 X185.948 Y71.678 E5.16161
G1 X186.287 Y72.308 E5.18541
G1 X186.554 Y72.971 E5.20918
G1 X186.745 Y73.661 E5.23299
G1 X186.858 Y74.367 E5.25677
G1 X186.888 Y74.841 E5.27257
G1 X186.897 Y75.161 E5.28322
G1 X186.9 Y75.341 E5.28921
G1 X186.9 Y84.285 E5.58668
G1 X186.899 Y84.374 E5.58965
G1 X186.889 Y85.091 E5.61349
G1 X186.839 Y85.805 E5.6373
G1 X186.71 Y86.508 E5.66107
G1 X186.503 Y87.193 E5.68487
G1 X186.135 Y88.017 E5.71489
G1 X185.759 Y88.721 E5.74143
G1 X185.706 Y88.818 E5.74511
G1 X185.088 Y89.929 E5.7874
G1 X183.852 Y92.304 E5.87644
G1 X182.706 Y94.666 E5.96376
G1 X181.617 Y97.084 E6.05197
G1 X180.584 Y99.556 E6.14108
G1 X179.656 Y101.981 E6.22744
G1 X178.769 Y104.502 E6.31632
G1 X177.961 Y107.025 E6.40444
G1 X177.225 Y109.564 E6.49236
G1 X176.801 Y111.195 E6.54841
G1 X176.772 Y111.302 E6.5521
G1 X176.657 Y111.715 E6.56636
G1 X176.427 Y112.392 E6.59014
G1 X176.123 Y113.039 E6.61391
G1 X175.749 Y113.649 E6.63771
G1 X175.308 Y114.212 E6.6615
G1 X174.808 Y114.724 E6.6853
G1 X174.254 Y115.176 E6.70908
G1 X173.653 Y115.563 E6.73286
G1 X172.99 Y115.89 E6.75745
G1 X172.136 Y116.252 E6.7883
G1 X169.632 Y117.343 E6.87914
G1 X167.212 Y118.48 E6.96807
G1 X164.894 Y119.649 E7.05442
G1 X162.521 Y120.931 E7.14413
G1 X160.243 Y122.248 E7.23164
G1 X157.989 Y123.637 E7.3197
G1 X155.772 Y125.089 E7.40785
G1 X153.587 Y126.614 E7.49647
G1 X151.496 Y128.16 E7.58296
G1 X149.395 Y129.809 E7.6718
G1 X147.356 Y131.503 E7.75996
G1 X145.362 Y133.26 E7.84836
G1 X143.442 Y135.048 E7.93562
G1 X141.545 Y136.918 E8.02422
G1 X140.456 Y138.058 E8.07665
G1 X140.372 Y138.145 E8.08068
G1 X138.98 Y139.547 E8.14639
G1 X138.888 Y139.637 E8.15067
G1 X138.394 Y140.115 E8.17353
G1 X138.312 Y140.194 E8.17732
G1 X138.04 Y140.448 E8.1897
G1 X137.887 Y140.586 E8.19655
G1 X136.852 Y141.492 E8.2423
G1 X136.759 Y141.572 E8.24638
G1 X136.209 Y142.035 E8.27029
G1 X136.123 Y142.106 E8.274
G1 X135.84 Y142.336 E8.28613
G1 X135.674 Y142.467 E8.29316
G1 X134.607 Y143.277 E8.33772
G1 X134.502 Y143.354 E8.34205
G1 X133.933 Y143.768 E8.36545
G1 X133.864 Y143.818 E8.36829
G1 X133.553 Y144.038 E8.38096
G1 X133.361 Y144.168 E8.38867
G1 X132.198 Y144.929 E8.4349
G1 X132.09 Y144.999 E8.43918
G1 X131.558 Y145.332 E8.46005
G1 X131.476 Y145.382 E8.46325
G1 X131.096 Y145.612 E8.47802
G1 X130.904 Y145.724 E8.48541
G1 X129.712 Y146.39 E8.53083
G1 X129.599 Y146.452 E8.53511
G1 X129.032 Y146.754 E8.55648
G1 X128.956 Y146.793 E8.55932
G1 X128.574 Y146.99 E8.57362
G1 X128.369 Y147.091 E8.58122
G1 X127.151 Y147.665 E8.626
G1 X127.031 Y147.721 E8.63041
G1 X126.39 Y148.007 E8.65375
G1 X126.311 Y148.041 E8.65661
G1 X125.932 Y148.204 E8.67034
G1 X125.727 Y148.288 E8.6777
G1 X124.508 Y148.763 E8.72122
G1 X124.368 Y148.816 E8.7262
G1 X123.671 Y149.069 E8.75086
G1 X123.6 Y149.094 E8.75336
G1 X122.954 Y149.32 E8.77612
G1 X122.76 Y149.385 E8.78293
G1 X122.445 Y149.484 E8.79391
G1 X122.298 Y149.528 E8.79902
G1 X120.979 Y149.908 E8.84467
G1 X120.89 Y149.933 E8.84774
G1 X120.468 Y150.048 E8.86229
G1 X120.246 Y150.104 E8.86991
G1 X118.932 Y150.412 E8.9148
G1 X118.779 Y150.446 E8.92001
G1 X117.716 Y150.668 E8.95613
G1 X117.428 Y150.721 E8.96587
G1 X116.103 Y150.935 E9.01051
G1 X115.95 Y150.958 E9.01565
G1 X114.882 Y151.104 E9.05151
G1 X114.593 Y151.137 E9.06118
G1 X113.215 Y151.262 E9.1072
G1 X113.092 Y151.272 E9.11131
G1 X112.404 Y151.321 E9.13425
G1 X112.303 Y151.327 E9.13761
G1 X111.924 Y151.348 E9.15024
G1 X111.71 Y151.356 E9.15736
G1 X110.34 Y151.386 E9.20294
G1 X110.17 Y151.388 E9.20859
G1 X109.097 Y151.383 E9.24428
G1 X108.823 Y151.376 E9.2534
G1 X107.458 Y151.311 E9.29885
G1 X107.288 Y151.3 E9.30451
G1 X106.224 Y151.221 E9.34
G1 X105.945 Y151.195 E9.34932
G1 X104.586 Y151.034 E9.39484
G1 X104.456 Y151.017 E9.3992
G1 X103.745 Y150.918 E9.42307
G1 X103.641 Y150.902 E9.42657
G1 X103.295 Y150.848 E9.43822
G1 X103.089 Y150.813 E9.44517
G1 X101.729 Y150.555 E9.49121
G1 X101.591 Y150.527 E9.49589
G1 X100.956 Y150.392 E9.51749
G1 X100.864 Y150.372 E9.52062
G1 X100.421 Y150.271 E9.53573
G1 X100.215 Y150.22 E9.54279
G1 X98.95 Y149.887 E9.5863
G1 X98.786 Y149.842 E9.59195
G1 X97.741 Y149.537 E9.62816
G1 X97.472 Y149.452 E9.63754
G1 X96.126 Y148.994 E9.68483
G1 X95.968 Y148.938 E9.69041
G1 X94.965 Y148.567 E9.72597
G1 X94.701 Y148.462 E9.73542
G1 X93.504 Y147.958 E9.77862
G1 X93.39 Y147.909 E9.78275
G1 X92.71 Y147.607 E9.8075
G1 X92.624 Y147.568 E9.81064
G1 X92.308 Y147.422 E9.82221
G1 X92.109 Y147.326 E9.82956
G1 X90.876 Y146.704 E9.8755
G1 X90.737 Y146.631 E9.88072
G1 X89.8 Y146.129 E9.91607
G1 X89.543 Y145.984 E9.92589
G1 X88.353 Y145.274 E9.97198
G1 X88.222 Y145.194 E9.97708
G1 X87.339 Y144.638 E10.01179
G1 X87.098 Y144.479 E10.02139
G1 X85.926 Y143.665 E10.06885
G1 X85.794 Y143.57 E10.07426
G1 X84.952 Y142.953 E10.10898
G1 X84.724 Y142.778 E10.11854
G1 X83.662 Y141.924 E10.16387
G1 X83.564 Y141.844 E10.16807
G1 X83.054 Y141.417 E10.1902
G1 X82.97 Y141.345 E10.19388
G1 X82.654 Y141.071 E10.20779
G1 X82.505 Y140.938 E10.21443
G1 X81.513 Y140.022 E10.25934
G1 X81.406 Y139.921 E10.26423
G1 X80.892 Y139.424 E10.28801
G1 X80.823 Y139.356 E10.29124
G1 X80.533 Y139.067 E10.30485
G1 X80.396 Y138.927 E10.31137
G1 X80.027 Y138.536 E10.32925
G1 X78.165 Y136.61 E10.41835
G1 X76.295 Y134.782 E10.50533
G1 X74.34 Y132.977 E10.59383
G1 X72.338 Y131.231 E10.68218
G1 X70.287 Y129.541 E10.77057
G1 X68.223 Y127.936 E10.85753
G1 X66.064 Y126.354 E10.94655
G1 X63.92 Y124.875 E11.03319
G1 X61.664 Y123.409 E11.12267
G1 X59.417 Y122.039 E11.2102
G1 X57.132 Y120.732 E11.29776
G1 X54.779 Y119.474 E11.3865
G1 X52.406 Y118.289 E11.47472
G1 X50.034 Y117.189 E11.56168
G1 X47.89 Y116.279 E11.63915
G1 X47.839 Y116.257 E11.641
G1 X46.979 Y115.883 E11.67219
G1 X46.34 Y115.562 E11.69597
G1 X45.741 Y115.171 E11.71977
G1 X45.189 Y114.716 E11.74356
G1 X44.691 Y114.202 E11.76736
G1 X44.254 Y113.636 E11.79115
G1 X43.883 Y113.024 E11.81495
G1 X43.582 Y112.375 E11.83874
G1 X43.37 Y111.746 E11.86082
G1 X43.088 Y110.743 E11.89547
G1 X43.081 Y110.717 E11.89637
G1 X42.35 Y108.073 E11.98761
G1 X41.582 Y105.57 E12.07469
G1 X40.724 Y103.036 E12.16367
G1 X39.802 Y100.547 E12.25195
G1 X38.817 Y98.104 E12.33956
G1 X37.762 Y95.683 E12.4274
G1 X36.631 Y93.279 E12.51576
G1 X35.439 Y90.92 E12.60367
G1 X34.151 Y88.536 E12.6938
G1 X33.924 Y88.131 E12.70924
G1 X33.611 Y87.488 E12.73302
G1 X33.371 Y86.814 E12.75682
G1 X33.208 Y86.118 E12.78059
G1 X33.115 Y85.224 E12.81049
G1 X33.104 Y84.896 E12.8214
G1 X33.1 Y84.681 E12.82856
G1 X33.1 Y75.685 E13.12777
G1 X33.101 Y75.598 E13.13066
G1 X33.11 Y74.933 E13.15278
G1 X33.159 Y74.22 E13.17655
G1 X33.288 Y73.516 E13.20035
G1 X33.495 Y72.832 E13.22412
G1 X33.777 Y72.174 E13.24793
G1 X34.13 Y71.552 E13.27172
G1 X34.55 Y70.974 E13.29548
G1 X35.033 Y70.446 E13.31929
G1 X35.571 Y69.975 E13.34307
G1 X36.159 Y69.567 E13.36687
G1 X36.788 Y69.227 E13.39065
G0 F3600 X37.159 Y69.499
G1 F1800 X37.811 Y69.265 E13.41369
G1 X38.485 Y69.108 E13.43671
G1 X39.341 Y69.022 E13.46532
G1 X39.662 Y69.013 E13.476
G1 X39.83 Y69.011 E13.48159
G1 X58.638 Y69.011 E14.10715
G1 X58.723 Y69.012 E14.10998
G1 X59.429 Y69.022 E14.13346
G1 X59.774 Y69.036 E14.14495
G1 X59.927 Y69.047 E14.15005
G1 X60.614 Y69.137 E14.17309
G1 X61.286 Y69.305 E14.19613
G1 X61.934 Y69.549 E14.21916
G1 X62.426 Y69.795 E14.23746
G1 X63.143 Y70.196 E14.26478
G1 X63.211 Y70.235 E14.26739
G1 X64.184 Y70.796 E14.30474
G1 X66.505 Y72.049 E14.39247
G1 X68.886 Y73.249 E14.48115
G1 X71.276 Y74.371 E14.56897
G1 X73.754 Y75.448 E14.65883
G1 X76.195 Y76.429 E14.74633
G1 X78.687 Y77.35 E14.8347
G1 X81.213 Y78.202 E14.92336
G1 X83.738 Y78.975 E15.01119
G1 X86.309 Y79.684 E15.0999
G1 X88.933 Y80.329 E15.18977
G1 X91.489 Y80.878 E15.27672
G1 X94.126 Y81.369 E15.36593
G1 X96.732 Y81.778 E15.45367
G1 X99.352 Y82.114 E15.54153
G1 X102.036 Y82.381 E15.63124
G1 X104.657 Y82.567 E15.71863
G1 X107.356 Y82.682 E15.80848
G1 X109.99 Y82.72 E15.8961
G1 X112.615 Y82.684 E15.98341
G1 X115.321 Y82.569 E16.0735
G1 X117.938 Y82.384 E16.16076
G1 X120.626 Y82.118 E16.2506
G1 X123.203 Y81.788 E16.33701
G1 X125.882 Y81.368 E16.4272
G1 X128.454 Y80.891 E16.5142
G1 X131.069 Y80.328 E16.60317
G1 X133.653 Y79.695 E16.69166
G1 X136.23 Y78.986 E16.78055
G1 X138.749 Y78.216 E16.86816
G1 X141.299 Y77.356 E16.95767
G1 X143.753 Y76.451 E17.04466
G1 X146.26 Y75.445 E17.13451
G1 X148.665 Y74.4 E17.22172
G1 X151.107 Y73.255 E17.31143
G1 X153.473 Y72.064 E17.39953
G1 X155.799 Y70.809 E17.48744
G1 X157.51 Y69.832 E17.55297
G1 X158.131 Y69.524 E17.57603
G1 X158.782 Y69.289 E17.59904
G1 X159.456 Y69.131 E17.62207
G1 X160.365 Y69.043 E17.65244
G1 X161.355 Y69.023 E17.68538
G1 X161.472 Y69.022 E17.68927
G1 X179.812 Y69.011 E18.29926
G1 X179.905 Y69.012 E18.30235
G1 X180.58 Y69.022 E18.32481
G1 X181.271 Y69.072 E18.34785
G1 X181.951 Y69.201 E18.37087
G1 X182.612 Y69.408 E18.39391
G1 X183.244 Y69.69 E18.41693
G1 X183.84 Y70.043 E18.43997
G1 X184.392 Y70.462 E18.46302
G1 X184.891 Y70.942 E18.48604
G1 X185.332 Y71.476 E18.50908
G1 X185.708 Y72.057 E18.5321
G1 X186.015 Y72.678 E18.55514
G1 X186.248 Y73.33 E18.57817
G1 X186.404 Y74.005 E18.60121
G1 X186.489 Y74.852 E18.62952
G1 X186.498 Y75.172 E18.64017
G1 X186.5 Y75.341 E18.64579
G1 X186.5 Y84.285 E18.94327
G1 X186.499 Y84.369 E18.94606
G1 X186.489 Y85.086 E18.96991
G1 X186.44 Y85.776 E18.99292
G1 X186.311 Y86.457 E19.01597
G1 X186.105 Y87.118 E19.039
G1 X185.782 Y87.829 E19.06497
G1 X185.406 Y88.533 E19.09152
G1 X185.357 Y88.624 E19.09496
G1 X184.718 Y89.772 E19.13866
G1 X183.509 Y92.095 E19.22576
G1 X182.346 Y94.493 E19.3144
G1 X181.242 Y96.945 E19.40384
G1 X180.222 Y99.385 E19.4918
G1 X179.273 Y101.866 E19.58015
G1 X178.386 Y104.384 E19.66894
G1 X177.582 Y106.897 E19.7567
G1 X176.837 Y109.467 E19.8457
G1 X176.414 Y111.094 E19.90161
G1 X176.387 Y111.194 E19.90505
G1 X176.272 Y111.607 E19.91931
G1 X176.048 Y112.263 E19.94237
G1 X175.75 Y112.888 E19.9654
G1 X175.382 Y113.475 E19.98844
G1 X174.949 Y114.015 E20.01146
G1 X174.456 Y114.502 E20.03451
G1 X173.911 Y114.929 E20.05754
G1 X173.32 Y115.29 E20.08057
G1 X172.834 Y115.522 E20.09849
G1 X171.921 Y115.909 E20.13147
G1 X169.481 Y116.972 E20.21999
G1 X167.04 Y118.119 E20.30969
G1 X164.688 Y119.305 E20.3973
G1 X162.351 Y120.568 E20.48566
G1 X160.012 Y121.92 E20.57551
G1 X157.791 Y123.289 E20.66229
G1 X155.546 Y124.76 E20.75156
G1 X153.384 Y126.268 E20.83923
G1 X151.218 Y127.869 E20.92882
G1 X149.137 Y129.502 E21.0168
G1 X147.119 Y131.179 E21.10407
G1 X145.091 Y132.966 E21.19397
G1 X143.153 Y134.771 E21.28206
G1 X141.275 Y136.623 E21.36978
G1 X140.167 Y137.782 E21.42311
G1 X140.088 Y137.863 E21.42688
G1 X138.696 Y139.265 E21.49259
G1 X138.61 Y139.35 E21.49661
G1 X138.116 Y139.828 E21.51947
G1 X138.039 Y139.901 E21.523
G1 X137.767 Y140.155 E21.53538
G1 X137.624 Y140.285 E21.54181
G1 X136.589 Y141.191 E21.58756
G1 X136.501 Y141.266 E21.5914
G1 X135.951 Y141.729 E21.61531
G1 X135.871 Y141.795 E21.61876
G1 X135.588 Y142.025 E21.63089
G1 X135.432 Y142.148 E21.6375
G1 X134.365 Y142.958 E21.68206
G1 X134.267 Y143.031 E21.68612
G1 X133.698 Y143.445 E21.70952
G1 X133.633 Y143.491 E21.71217
G1 X133.322 Y143.711 E21.72484
G1 X133.142 Y143.834 E21.73209
G1 X131.979 Y144.595 E21.77832
G1 X131.877 Y144.66 E21.78234
G1 X131.345 Y144.993 E21.80322
G1 X131.269 Y145.04 E21.80619
G1 X130.889 Y145.27 E21.82096
G1 X130.709 Y145.375 E21.8279
G1 X129.517 Y146.041 E21.87331
G1 X129.411 Y146.099 E21.87733
G1 X128.844 Y146.401 E21.8987
G1 X128.773 Y146.438 E21.90136
G1 X128.391 Y146.635 E21.91565
G1 X128.199 Y146.729 E21.92276
G1 X126.981 Y147.303 E21.96755
G1 X126.868 Y147.355 E21.97169
G1 X126.227 Y147.641 E21.99503
G1 X126.153 Y147.674 E21.99773
G1 X125.774 Y147.837 E22.01145
G1 X125.581 Y147.916 E22.01838
G1 X124.362 Y148.391 E22.0619
G1 X124.231 Y148.44 E22.06655
G1 X123.534 Y148.693 E22.09121
G1 X123.468 Y148.716 E22.09354
G1 X122.822 Y148.942 E22.1163
G1 X122.64 Y149.003 E22.12268
G1 X122.325 Y149.102 E22.13367
G1 X122.187 Y149.144 E22.13846
G1 X120.868 Y149.524 E22.18412
G1 X120.785 Y149.547 E22.18698
G1 X120.363 Y149.662 E22.20153
G1 X120.154 Y149.715 E22.2087
G1 X118.84 Y150.023 E22.25359
G1 X118.698 Y150.054 E22.25842
G1 X117.635 Y150.276 E22.29454
G1 X117.365 Y150.326 E22.30368
G1 X116.04 Y150.54 E22.34832
G1 X115.896 Y150.562 E22.35316
G1 X114.828 Y150.708 E22.38901
G1 X114.557 Y150.738 E22.39808
G1 X113.179 Y150.863 E22.4441
G1 X113.063 Y150.873 E22.44798
G1 X112.375 Y150.922 E22.47092
G1 X112.281 Y150.928 E22.47405
G1 X111.902 Y150.949 E22.48667
G1 X111.701 Y150.957 E22.49336
G1 X110.331 Y150.987 E22.53894
G1 X110.172 Y150.988 E22.54423
G1 X109.099 Y150.983 E22.57992
G1 X108.842 Y150.976 E22.58847
G1 X107.477 Y150.911 E22.63392
